; generated by Slic3r 1.3.1-dev on 2020-04-30 at 17:27:44

; external perimeters extrusion width = 0.44mm (2.38mm^3/s)
; perimeters extrusion width = 0.56mm (6.20mm^3/s)
; infill extrusion width = 0.50mm (7.31mm^3/s)
; solid infill extrusion width = 0.56mm (2.07mm^3/s)
; top infill extrusion width = 0.56mm (1.55mm^3/s)
; support material extrusion width = 0.44mm (4.76mm^3/s)

M190 S45 ; set bed temperature and wait for it to be reached
M104 S195 ; set temperature
G28 ; home all axes
G1 Z5 F5000 ; lift nozzle

; Filament gcode

M109 S195 ; set temperature and wait for it to be reached
G21 ; set units to millimeters
G90 ; use absolute coordinates
M82 ; use absolute distances for extrusion
G92 E0
G92 E0
G1 Z0.200 F7800.000
G1 E-2.00000 F2400.00000
G92 E0
G1 X100.293 Y101.134 F7800.000
G1 E2.00000 F2400.00000
G1 F1800
G1 X101.778 Y99.655 E2.06224
G1 X103.517 Y98.563 E2.12319
G1 X105.096 Y97.802 E2.17526
G1 X107.047 Y97.119 E2.23663
G1 X109.120 Y96.883 E2.29858
G1 X110.878 Y96.883 E2.35075
G1 X112.951 Y97.119 E2.41270
G1 X114.902 Y97.802 E2.47407
G1 X116.481 Y98.563 E2.52614
G1 X118.239 Y99.670 E2.58781
G1 X119.705 Y101.134 E2.64933
G1 X120.804 Y102.513 E2.70169
G1 X121.898 Y104.256 E2.76277
G1 X122.589 Y106.225 E2.82473
G1 X122.980 Y107.936 E2.87685
G1 X123.210 Y109.985 E2.93808
G1 X122.979 Y112.062 E3.00012
G1 X122.589 Y113.771 E3.05218
G1 X121.908 Y115.716 E3.11334
G1 X120.799 Y117.487 E3.17540
G1 X119.705 Y118.860 E3.22752
G1 X118.220 Y120.339 E3.28977
G1 X116.481 Y121.431 E3.35071
G1 X114.924 Y122.181 E3.40203
G1 X112.951 Y122.875 E3.46413
G1 X110.878 Y123.111 E3.52609
G1 X109.120 Y123.111 E3.57826
G1 X107.047 Y122.875 E3.64022
G1 X105.096 Y122.192 E3.70159
G1 X103.517 Y121.431 E3.75365
G1 X101.759 Y120.324 E3.81533
G1 X100.293 Y118.860 E3.87684
G1 X99.194 Y117.481 E3.92921
G1 X98.100 Y115.738 E3.99028
G1 X97.409 Y113.772 E4.05218
G1 X97.018 Y112.059 E4.10432
G1 X96.788 Y110.010 E4.16554
G1 X97.018 Y107.937 E4.22750
G1 X97.409 Y106.225 E4.27962
G1 X98.090 Y104.278 E4.34085
G1 X99.199 Y102.507 E4.40292
G1 X100.256 Y101.181 E4.45325
G1 X100.573 Y101.357 F7800.000
G1 F1800
G1 X102.001 Y99.934 E4.51310
G1 X103.672 Y98.885 E4.57170
G1 X105.251 Y98.124 E4.62376
G1 X107.127 Y97.467 E4.68275
G1 X109.120 Y97.240 E4.74233
G1 X110.878 Y97.240 E4.79450
G1 X112.871 Y97.467 E4.85408
G1 X114.747 Y98.124 E4.91307
G1 X116.326 Y98.885 E4.96514
G1 X118.017 Y99.949 E5.02445
G1 X119.425 Y101.357 E5.08358
G1 X120.525 Y102.736 E5.13594
G1 X121.576 Y104.411 E5.19465
G1 X122.241 Y106.304 E5.25423
G1 X122.631 Y108.016 E5.30636
G1 X122.853 Y109.985 E5.36521
G1 X122.631 Y111.983 E5.42488
G1 X122.241 Y113.692 E5.47693
G1 X121.587 Y115.561 E5.53572
G1 X120.520 Y117.265 E5.59542
G1 X119.425 Y118.637 E5.64753
G1 X117.997 Y120.060 E5.70740
G1 X116.326 Y121.109 E5.76597
G1 X114.769 Y121.860 E5.81730
G1 X112.872 Y122.527 E5.87702
G1 X110.878 Y122.754 E5.93661
G1 X109.120 Y122.754 E5.98878
G1 X107.126 Y122.527 E6.04837
G1 X105.251 Y121.870 E6.10735
G1 X103.672 Y121.109 E6.15941
G1 X101.981 Y120.044 E6.21873
G1 X100.572 Y118.637 E6.27786
G1 X99.473 Y117.258 E6.33021
G1 X98.422 Y115.584 E6.38892
G1 X97.758 Y113.692 E6.44845
G1 X97.367 Y111.980 E6.50059
G1 X97.145 Y110.010 E6.55944
G1 X97.367 Y108.016 E6.61902
G1 X97.757 Y106.304 E6.67114
G1 X98.411 Y104.433 E6.73000
G1 X99.478 Y102.729 E6.78969
G1 X100.535 Y101.404 E6.84002
G1 X100.852 Y101.580 F7800.000
G1 F1800
G1 X102.223 Y100.214 E6.89749
G1 X103.827 Y99.206 E6.95372
G1 X105.406 Y98.445 E7.00579
G1 X107.206 Y97.815 E7.06240
G1 X109.120 Y97.597 E7.11961
G1 X110.878 Y97.597 E7.17178
G1 X112.792 Y97.815 E7.22898
G1 X114.592 Y98.445 E7.28560
G1 X116.171 Y99.206 E7.33766
G1 X117.794 Y100.229 E7.39462
G1 X119.146 Y101.580 E7.45136
G1 X120.245 Y102.958 E7.50371
G1 X121.254 Y104.565 E7.56005
G1 X121.893 Y106.383 E7.61726
G1 X122.283 Y108.095 E7.66939
G1 X122.496 Y109.985 E7.72587
G1 X122.283 Y111.903 E7.78316
G1 X121.892 Y113.612 E7.83522
G1 X121.265 Y115.406 E7.89163
G1 X120.241 Y117.042 E7.94895
G1 X119.146 Y118.414 E8.00106
G1 X117.775 Y119.781 E8.05855
G1 X116.171 Y120.788 E8.11476
G1 X114.614 Y121.538 E8.16609
G1 X112.792 Y122.179 E8.22343
G1 X110.878 Y122.397 E8.28065
G1 X109.120 Y122.397 E8.33281
G1 X107.206 Y122.179 E8.39003
G1 X105.406 Y121.549 E8.44664
G1 X103.827 Y120.788 E8.49870
G1 X102.204 Y119.765 E8.55566
G1 X100.852 Y118.414 E8.61240
G1 X99.753 Y117.036 E8.66475
G1 X98.744 Y115.429 E8.72108
G1 X98.106 Y113.613 E8.77824
G1 X97.715 Y111.901 E8.83038
G1 X97.502 Y110.010 E8.88686
G1 X97.715 Y108.095 E8.94407
G1 X98.105 Y106.384 E8.99619
G1 X98.733 Y104.588 E9.05268
G1 X99.757 Y102.952 E9.10999
G1 X100.814 Y101.627 E9.16032
G1 X101.131 Y101.802 F7800.000
G1 F1800
G1 X102.445 Y100.493 E9.21541
G1 X103.982 Y99.528 E9.26928
G1 X105.561 Y98.767 E9.32134
G1 X107.286 Y98.164 E9.37557
G1 X109.120 Y97.954 E9.43041
G1 X110.878 Y97.954 E9.48258
G1 X112.712 Y98.164 E9.53741
G1 X114.437 Y98.767 E9.59165
G1 X116.016 Y99.528 E9.64371
G1 X117.572 Y100.508 E9.69830
G1 X118.867 Y101.802 E9.75267
G1 X119.966 Y103.180 E9.80500
G1 X120.932 Y104.720 E9.85898
G1 X121.545 Y106.463 E9.91382
G1 X121.935 Y108.174 E9.96594
G1 X122.139 Y109.985 E10.02005
G1 X121.935 Y111.824 E10.07497
G1 X121.544 Y113.533 E10.12702
G1 X120.943 Y115.251 E10.18107
G1 X119.961 Y116.819 E10.23601
G1 X118.867 Y118.192 E10.28812
G1 X117.552 Y119.501 E10.34322
G1 X116.016 Y120.466 E10.39708
G1 X114.456 Y121.218 E10.44852
G1 X112.713 Y121.830 E10.50336
G1 X110.878 Y122.040 E10.55821
G1 X109.120 Y122.040 E10.61038
G1 X107.285 Y121.830 E10.66522
G1 X105.561 Y121.227 E10.71945
G1 X103.982 Y120.466 E10.77151
G1 X102.426 Y119.486 E10.82611
G1 X101.131 Y118.192 E10.88047
G1 X100.032 Y116.814 E10.93280
G1 X99.066 Y115.274 E10.98677
G1 X98.454 Y113.533 E11.04156
G1 X98.063 Y111.821 E11.09370
G1 X97.859 Y110.010 E11.14780
G1 X98.063 Y108.175 E11.20264
G1 X98.453 Y106.463 E11.25476
G1 X99.055 Y104.743 E11.30888
G1 X100.037 Y103.175 E11.36381
G1 X101.093 Y101.849 E11.41414
G1 X101.410 Y102.025 F7800.000
G1 F1800
G1 X102.668 Y100.772 E11.46685
G1 X104.137 Y99.850 E11.51835
G1 X105.716 Y99.089 E11.57041
G1 X107.365 Y98.512 E11.62227
G1 X109.120 Y98.311 E11.67473
G1 X110.878 Y98.311 E11.72690
G1 X112.633 Y98.512 E11.77937
G1 X114.282 Y99.089 E11.83122
G1 X115.861 Y99.850 E11.88329
G1 X117.349 Y100.788 E11.93552
G1 X118.588 Y102.025 E11.98750
G1 X119.687 Y103.403 E12.03982
G1 X120.611 Y104.875 E12.09143
G1 X121.197 Y106.542 E12.14390
G1 X121.587 Y108.254 E12.19602
G1 X121.782 Y109.985 E12.24776
G1 X121.587 Y111.744 E12.30030
G1 X121.196 Y113.453 E12.35235
G1 X120.621 Y115.096 E12.40403
G1 X119.682 Y116.597 E12.45659
G1 X118.588 Y117.969 E12.50871
G1 X117.330 Y119.222 E12.56142
G1 X115.861 Y120.144 E12.61292
G1 X114.304 Y120.895 E12.66424
G1 X112.633 Y121.482 E12.71682
G1 X110.878 Y121.683 E12.76930
G1 X109.120 Y121.683 E12.82146
G1 X107.365 Y121.482 E12.87394
G1 X105.716 Y120.905 E12.92578
G1 X104.137 Y120.144 E12.97785
G1 X102.648 Y119.206 E13.03008
G1 X101.410 Y117.969 E13.08206
G1 X100.311 Y116.591 E13.13438
G1 X99.388 Y115.119 E13.18599
G1 X98.802 Y113.454 E13.23840
G1 X98.411 Y111.742 E13.29054
G1 X98.216 Y110.010 E13.34227
G1 X98.411 Y108.254 E13.39473
G1 X98.801 Y106.543 E13.44686
G1 X99.377 Y104.898 E13.49860
G1 X100.316 Y103.397 E13.55116
G1 X101.373 Y102.072 E13.60149
G1 X101.689 Y102.248 F7800.000
G1 F1800
G1 X102.890 Y101.052 E13.65181
G1 X104.292 Y100.171 E13.70095
G1 X105.871 Y99.410 E13.75301
G1 X107.444 Y98.860 E13.80249
G1 X109.120 Y98.668 E13.85258
G1 X110.878 Y98.668 E13.90475
G1 X112.554 Y98.860 E13.95484
G1 X114.127 Y99.410 E14.00432
G1 X115.706 Y100.171 E14.05638
G1 X117.127 Y101.067 E14.10625
G1 X118.309 Y102.248 E14.15585
G1 X119.407 Y103.625 E14.20816
G1 X120.289 Y105.030 E14.25741
G1 X120.848 Y106.622 E14.30750
G1 X121.239 Y108.333 E14.35962
G1 X121.425 Y109.985 E14.40899
G1 X121.238 Y111.665 E14.45915
G1 X120.848 Y113.374 E14.51121
G1 X120.300 Y114.941 E14.56052
G1 X119.403 Y116.374 E14.61070
G1 X118.309 Y117.746 E14.66282
G1 X117.108 Y118.943 E14.71315
G1 X115.706 Y119.822 E14.76228
G1 X114.149 Y120.573 E14.81360
G1 X112.554 Y121.134 E14.86381
G1 X110.878 Y121.326 E14.91391
G1 X109.120 Y121.326 E14.96608
G1 X107.444 Y121.134 E15.01617
G1 X105.871 Y120.584 E15.06565
G1 X104.292 Y119.823 E15.11771
G1 X102.871 Y118.927 E15.16758
G1 X101.689 Y117.746 E15.21717
G1 X100.591 Y116.369 E15.26949
G1 X99.709 Y114.964 E15.31872
G1 X99.150 Y113.374 E15.36877
G1 X98.759 Y111.662 E15.42090
G1 X98.573 Y110.010 E15.47026
G1 X98.759 Y108.334 E15.52035
G1 X99.149 Y106.622 E15.57247
G1 X99.698 Y105.053 E15.62184
G1 X100.595 Y103.620 E15.67203
G1 X101.652 Y102.294 E15.72236
G1 X101.968 Y102.470 F7800.000
G1 F1800
G1 X103.112 Y101.331 E15.77029
G1 X104.447 Y100.493 E15.81708
G1 X106.026 Y99.732 E15.86914
G1 X107.524 Y99.208 E15.91624
G1 X109.120 Y99.025 E15.96396
G1 X110.878 Y99.025 E16.01613
G1 X112.450 Y99.202 E16.06311
G1 X113.972 Y99.732 E16.11094
G1 X115.551 Y100.493 E16.16301
G1 X116.885 Y101.331 E16.20978
G1 X118.030 Y102.470 E16.25772
G1 X119.128 Y103.848 E16.31003
G1 X119.978 Y105.207 E16.35764
G1 X120.500 Y106.701 E16.40463
G1 X120.891 Y108.413 E16.45675
G1 X121.068 Y110.011 E16.50449
G1 X120.890 Y111.585 E16.55153
G1 X120.500 Y113.294 E16.60359
G1 X119.967 Y114.809 E16.65127
G1 X119.124 Y116.152 E16.69834
G1 X118.030 Y117.524 E16.75045
G1 X116.905 Y118.648 E16.79766
G1 X115.551 Y119.501 E16.84517
G1 X113.968 Y120.264 E16.89733
G1 X112.475 Y120.786 E16.94432
G1 X110.878 Y120.969 E16.99205
G1 X109.120 Y120.969 E17.04422
G1 X107.523 Y120.786 E17.09194
G1 X106.026 Y120.262 E17.13903
G1 X104.447 Y119.501 E17.19110
G1 X103.113 Y118.663 E17.23787
G1 X101.968 Y117.524 E17.28582
G1 X100.870 Y116.146 E17.33812
G1 X100.020 Y114.787 E17.38573
G1 X99.498 Y113.295 E17.43267
G1 X99.113 Y111.609 E17.48400
G1 X98.930 Y110.010 E17.53178
G1 X99.107 Y108.413 E17.57950
G1 X99.498 Y106.702 E17.63162
G1 X100.020 Y105.207 E17.67861
G1 X100.874 Y103.842 E17.72642
G1 X101.931 Y102.517 E17.77675
G1 X102.248 Y102.693 F7800.000
G1 F1800
G1 X103.335 Y101.610 E17.82231
G1 X104.602 Y100.815 E17.86673
G1 X106.181 Y100.054 E17.91879
G1 X107.627 Y99.551 E17.96425
G1 X109.120 Y99.382 E18.00886
G1 X110.878 Y99.382 E18.06102
G1 X112.395 Y99.556 E18.10637
G1 X113.817 Y100.054 E18.15109
G1 X115.396 Y100.815 E18.20315
G1 X116.663 Y101.610 E18.24756
G1 X117.750 Y102.693 E18.29313
G1 X118.849 Y104.070 E18.34542
G1 X119.656 Y105.362 E18.39067
G1 X120.152 Y106.780 E18.43528
G1 X120.543 Y108.492 E18.48740
G1 X120.711 Y110.011 E18.53277
G1 X120.542 Y111.506 E18.57743
G1 X120.152 Y113.215 E18.62949
G1 X119.645 Y114.655 E18.67481
G1 X118.845 Y115.929 E18.71949
G1 X117.750 Y117.301 E18.77161
G1 X116.682 Y118.368 E18.81643
G1 X115.396 Y119.179 E18.86158
G1 X113.814 Y119.942 E18.91374
G1 X112.395 Y120.438 E18.95836
G1 X110.878 Y120.612 E19.00371
G1 X109.120 Y120.612 E19.05588
G1 X107.603 Y120.438 E19.10123
G1 X106.181 Y119.940 E19.14594
G1 X104.602 Y119.179 E19.19801
G1 X103.335 Y118.384 E19.24242
G1 X102.248 Y117.301 E19.28798
G1 X101.149 Y115.924 E19.34028
G1 X100.342 Y114.632 E19.38551
G1 X99.846 Y113.215 E19.43009
G1 X99.461 Y111.530 E19.48142
G1 X99.287 Y110.010 E19.52682
G1 X99.455 Y108.492 E19.57217
G1 X99.846 Y106.781 E19.62429
G1 X100.342 Y105.362 E19.66891
G1 X101.153 Y104.065 E19.71434
G1 X102.210 Y102.740 E19.76467
G1 X102.527 Y102.915 F7800.000
G1 F1800
G1 X103.557 Y101.890 E19.80784
G1 X104.757 Y101.137 E19.84990
G1 X106.336 Y100.375 E19.90196
G1 X107.707 Y99.899 E19.94504
G1 X109.120 Y99.740 E19.98728
G1 X110.878 Y99.740 E20.03945
G1 X112.315 Y99.904 E20.08242
G1 X113.662 Y100.375 E20.12476
G1 X115.241 Y101.137 E20.17682
G1 X116.440 Y101.890 E20.21887
G1 X117.471 Y102.915 E20.26205
G1 X118.569 Y104.292 E20.31434
G1 X119.334 Y105.517 E20.35721
G1 X119.804 Y106.860 E20.39946
G1 X120.194 Y108.571 E20.45158
G1 X120.354 Y110.011 E20.49457
G1 X120.194 Y111.426 E20.53686
G1 X119.804 Y113.135 E20.58892
G1 X119.323 Y114.500 E20.63187
G1 X118.565 Y115.706 E20.67417
G1 X117.471 Y117.079 E20.72629
G1 X116.460 Y118.089 E20.76873
G1 X115.241 Y118.857 E20.81151
G1 X113.659 Y119.620 E20.86367
G1 X112.316 Y120.090 E20.90591
G1 X110.878 Y120.254 E20.94889
G1 X109.120 Y120.254 E21.00106
G1 X107.682 Y120.090 E21.04404
G1 X106.336 Y119.619 E21.08638
G1 X104.757 Y118.857 E21.13844
G1 X103.557 Y118.104 E21.18049
G1 X102.527 Y117.079 E21.22367
G1 X101.429 Y115.702 E21.27595
G1 X100.664 Y114.477 E21.31883
G1 X100.194 Y113.136 E21.36103
G1 X99.809 Y111.450 E21.41236
G1 X99.644 Y110.010 E21.45538
G1 X99.804 Y108.572 E21.49836
G1 X100.194 Y106.860 E21.55048
G1 X100.664 Y105.517 E21.59273
G1 X101.432 Y104.288 E21.63578
G1 X102.489 Y102.962 E21.68612
G1 E19.68612 F2400.00000
G92 E0
G1 X105.567 Y105.336 F7800.000
G1 E2.00000 F2400.00000
G1 F1800
G1 X105.849 Y105.033 E2.01290
G1 X106.086 Y104.844 E2.02235
G1 X106.320 Y104.697 E2.03098
G1 X108.149 Y103.816 E2.09427
G1 X108.411 Y103.724 E2.10294
G1 X108.706 Y103.657 E2.11237
G1 X108.982 Y103.626 E2.12102
G1 X111.016 Y103.626 E2.18446
G1 X111.292 Y103.657 E2.19310
G1 X111.587 Y103.724 E2.20254
G1 X111.849 Y103.816 E2.21121
G1 X113.678 Y104.697 E2.27450
G1 X113.912 Y104.844 E2.28313
G1 X114.149 Y105.032 E2.29256
G1 X114.346 Y105.229 E2.30125
G1 X115.615 Y106.821 E2.36472
G1 X115.762 Y107.055 E2.37334
G1 X115.893 Y107.327 E2.38276
G1 X115.984 Y107.589 E2.39141
G1 X116.437 Y109.571 E2.45480
G1 X116.468 Y109.847 E2.46345
G1 X116.468 Y110.150 E2.47289
G1 X116.437 Y110.425 E2.48155
G1 X115.985 Y112.405 E2.54485
G1 X115.893 Y112.667 E2.55350
G1 X115.762 Y112.940 E2.56295
G1 X115.614 Y113.175 E2.57162
G1 X114.347 Y114.764 E2.63497
G1 X114.149 Y114.961 E2.64369
G1 X113.912 Y115.150 E2.65314
G1 X113.679 Y115.297 E2.66175
G1 X111.848 Y116.179 E2.72509
G1 X111.587 Y116.270 E2.73374
G1 X111.292 Y116.337 E2.74317
G1 X111.016 Y116.368 E2.75182
G1 X108.982 Y116.368 E2.81525
G1 X108.706 Y116.337 E2.82390
G1 X108.411 Y116.270 E2.83334
G1 X108.149 Y116.178 E2.84201
G1 X106.320 Y115.297 E2.90529
G1 X106.086 Y115.150 E2.91392
G1 X105.849 Y114.962 E2.92336
G1 X105.652 Y114.765 E2.93205
G1 X104.383 Y113.173 E2.99551
G1 X104.236 Y112.939 E3.00414
G1 X104.105 Y112.667 E3.01355
G1 X104.014 Y112.405 E3.02219
G1 X103.598 Y110.585 E3.08042
G1 X103.530 Y110.149 E3.09417
G1 X103.530 Y109.847 E3.10359
G1 X103.561 Y109.571 E3.11224
G1 X104.013 Y107.589 E3.17563
G1 X104.105 Y107.327 E3.18428
G1 X104.236 Y107.054 E3.19373
G1 X104.384 Y106.819 E3.20239
G1 X105.530 Y105.383 E3.25968
G1 X105.860 Y105.569 F7800.000
G1 F1800
G1 X106.099 Y105.313 E3.27060
G1 X106.303 Y105.150 E3.27873
G1 X106.502 Y105.026 E3.28605
G1 X108.292 Y104.163 E3.34803
G1 X108.515 Y104.085 E3.35539
G1 X108.769 Y104.027 E3.36351
G1 X109.003 Y104.001 E3.37084
G1 X110.995 Y104.001 E3.43297
G1 X111.229 Y104.027 E3.44030
G1 X111.483 Y104.085 E3.44842
G1 X111.706 Y104.163 E3.45578
G1 X113.496 Y105.026 E3.51776
G1 X113.695 Y105.150 E3.52508
G1 X113.899 Y105.313 E3.53320
G1 X114.066 Y105.480 E3.54057
G1 X115.308 Y107.038 E3.60271
G1 X115.433 Y107.237 E3.61003
G1 X115.546 Y107.471 E3.61813
G1 X115.624 Y107.693 E3.62547
G1 X116.066 Y109.634 E3.68754
G1 X116.093 Y109.868 E3.69488
G1 X116.093 Y110.128 E3.70301
G1 X116.066 Y110.363 E3.71036
G1 X115.624 Y112.301 E3.77235
G1 X115.546 Y112.523 E3.77969
G1 X115.433 Y112.758 E3.78782
G1 X115.307 Y112.958 E3.79517
G1 X114.067 Y114.513 E3.85722
G1 X113.899 Y114.681 E3.86462
G1 X113.695 Y114.844 E3.87275
G1 X113.497 Y114.968 E3.88005
G1 X111.705 Y115.832 E3.94207
G1 X111.483 Y115.909 E3.94941
G1 X111.229 Y115.967 E3.95753
G1 X110.995 Y115.993 E3.96486
G1 X109.003 Y115.993 E4.02699
G1 X108.769 Y115.967 E4.03432
G1 X108.515 Y115.909 E4.04245
G1 X108.292 Y115.831 E4.04980
G1 X106.502 Y114.968 E4.11178
G1 X106.303 Y114.844 E4.11910
G1 X106.099 Y114.681 E4.12722
G1 X105.932 Y114.514 E4.13459
G1 X104.690 Y112.956 E4.19673
G1 X104.565 Y112.757 E4.20405
G1 X104.452 Y112.523 E4.21215
G1 X104.375 Y112.301 E4.21948
G1 X103.963 Y110.501 E4.27706
G1 X103.905 Y110.128 E4.28883
G1 X103.905 Y109.868 E4.29694
G1 X103.932 Y109.634 E4.30428
G1 X104.374 Y107.693 E4.36635
