; generated by Slic3r 1.2.9 on 2020-04-24 at 17:54:58

; external perimeters extrusion width = 0.40mm
; perimeters extrusion width = 0.67mm
; infill extrusion width = 0.67mm
; solid infill extrusion width = 0.67mm
; top infill extrusion width = 0.67mm
; support material extrusion width = 0.40mm

M190 S45 ; set bed temperature
M104 S255 ; set temperature
G28 ; home all axes
G1 Z5 F5000 ; lift nozzle

M109 S255 ; wait for temperature to be reached
G21 ; set units to millimeters
G90 ; use absolute coordinates
M82 ; use absolute distances for extrusion
G92 E0
G1 E-1.00000 F1800.00000
G92 E0
G1 Z0.200 F7800.000
G1 X46.439 Y57.550 F7800.000
G1 E1.00000 F1800.00000
G1 X48.060 Y56.243 E1.07109 F1800.000
G1 X49.168 Y55.626 E1.11438
G1 X51.711 Y54.567 E1.20845
G1 X97.508 Y41.311 E2.83641
G1 X101.095 Y40.834 E2.95995
G1 X101.887 Y40.847 E2.98700
G1 X104.052 Y41.077 E3.06132 F1800.000
G1 X104.779 Y41.221 E3.08662
G1 X107.667 Y42.178 E3.19052
G1 X148.375 Y61.590 E4.73043
G1 X150.982 Y63.302 E4.83695
G1 X153.071 Y65.619 E4.94346
G1 X154.505 Y68.390 E5.04998
G1 X155.243 Y72.510 E5.19292
G1 X155.621 Y146.667 E7.72503
G1 X155.239 Y149.763 E7.83155
G1 X154.327 Y152.202 E7.92046
G1 X154.011 Y152.832 E7.94453
G1 X152.269 Y155.420 E8.05104
G1 X149.927 Y157.481 E8.15756
G1 X148.347 Y158.385 E8.21970
G1 X107.413 Y177.897 E9.76809
G1 X103.218 Y179.040 E9.91655
G1 X102.382 Y179.113 E9.94518
G1 X100.381 Y179.122 E10.01353
G1 X99.612 Y179.063 E10.03986
G1 X97.157 Y178.618 E10.12506
G1 X51.114 Y165.288 E11.76174
G1 X47.211 Y163.349 E11.91053
G1 X46.630 Y162.916 E11.93530
G1 X43.505 Y159.489 E12.09366
G1 X43.066 Y158.770 E12.12241
G1 X41.794 Y155.922 E12.22892
G1 X41.276 Y152.405 E12.35032
G1 X41.276 Y67.931 E15.23467
G1 X41.675 Y64.837 E15.34119
G1 X42.571 Y62.458 E15.42798
G1 X43.080 Y61.443 E15.46678
G1 X44.822 Y58.855 E15.57329
G1 X46.393 Y57.588 E15.64218
G1 X46.657 Y57.822 F7800.000
G1 X48.233 Y56.555 E15.71122 F1800.000
G1 X49.341 Y55.938 E15.75451
G1 X51.810 Y54.910 E15.84583
G1 X97.607 Y41.654 E17.47377
G1 X101.089 Y41.191 E17.59370
G1 X101.881 Y41.204 E17.62076
G1 X103.982 Y41.428 E17.69291 F1800.000
G1 X104.709 Y41.571 E17.71820
G1 X107.513 Y42.500 E17.81906
G1 X148.218 Y61.911 E19.35888
G1 X150.784 Y63.603 E19.46382
G1 X152.829 Y65.897 E19.56876
G1 X154.215 Y68.640 E19.67370
G1 X154.886 Y72.512 E19.80788
G1 X155.264 Y146.669 E22.33999
G1 X154.882 Y149.718 E22.44493
G1 X154.008 Y152.042 E22.52969
G1 X153.692 Y152.672 E22.55377
G1 X151.970 Y155.218 E22.65870
G1 X149.652 Y157.236 E22.76364
G1 X148.194 Y158.062 E22.82088
G1 X107.259 Y177.575 E24.36926
G1 X103.187 Y178.684 E24.51338
G1 X102.351 Y178.757 E24.54201
G1 X100.408 Y178.766 E24.60836
G1 X99.639 Y178.707 E24.63470
G1 X97.256 Y178.275 E24.71740
G1 X51.213 Y164.945 E26.35408
G1 X47.425 Y163.063 E26.49853
G1 X46.843 Y162.630 E26.52329
G1 X43.810 Y159.303 E26.67703
G1 X43.371 Y158.584 E26.70577
G1 X42.123 Y155.776 E26.81071
G1 X41.633 Y152.405 E26.92702
G1 X41.633 Y67.931 E29.81138
G1 X42.032 Y64.883 E29.91632
G1 X42.890 Y62.618 E29.99903
G1 X43.399 Y61.603 E30.03782
G1 X45.121 Y59.057 E30.14276
G1 X46.611 Y57.859 E30.20803
G1 X46.875 Y58.093 F7800.000
G1 X48.407 Y56.867 E30.27504 F1800.000
G1 X49.515 Y56.250 E30.31833
G1 X51.909 Y55.253 E30.40689
G1 X97.706 Y41.997 E32.03482
G1 X101.083 Y41.548 E32.15114
G1 X101.875 Y41.561 E32.17820
G1 X103.913 Y41.778 E32.24817 F1800.000
G1 X104.640 Y41.922 E32.27347
G1 X107.360 Y42.823 E32.37129
G1 X148.062 Y62.233 E33.91101
G1 X150.585 Y63.903 E34.01435
G1 X152.585 Y66.175 E34.11769
G1 X153.924 Y68.889 E34.22103
G1 X154.529 Y72.514 E34.34651
G1 X154.907 Y146.671 E36.87862
G1 X154.524 Y149.673 E36.98196
G1 X153.688 Y151.882 E37.06261
G1 X153.372 Y152.512 E37.08668
G1 X151.672 Y155.016 E37.19002
G1 X149.377 Y156.989 E37.29336
G1 X148.040 Y157.740 E37.34572
G1 X107.106 Y177.253 E38.89411
G1 X103.156 Y178.328 E39.03389
G1 X102.320 Y178.401 E39.06252
G1 X100.436 Y178.410 E39.12687
G1 X99.667 Y178.351 E39.15321
G1 X97.355 Y177.932 E39.23342
G1 X51.313 Y164.602 E40.87010
G1 X47.638 Y162.777 E41.01019
G1 X47.057 Y162.343 E41.03496
G1 X44.115 Y159.116 E41.18407
G1 X43.676 Y158.398 E41.21281
G1 X42.452 Y155.630 E41.31615
G1 X41.990 Y152.405 E41.42740
G1 X41.990 Y67.931 E44.31176
G1 X42.389 Y64.931 E44.41509
G1 X43.209 Y62.778 E44.49375
G1 X43.718 Y61.763 E44.53254
G1 X45.419 Y59.259 E44.63588
G1 X46.828 Y58.131 E44.69752
G1 X47.092 Y58.365 F7800.000
G1 X48.581 Y57.179 E44.76253 F1800.000
G1 X49.688 Y56.562 E44.80582
G1 X52.008 Y55.596 E44.89163
G1 X97.805 Y42.340 E46.51955
G1 X101.077 Y41.905 E46.63226
G1 X101.869 Y41.918 E46.65931
G1 X103.844 Y42.128 E46.72711 F1800.000
G1 X104.571 Y42.272 E46.75241
G1 X107.206 Y43.145 E46.84719
G1 X147.906 Y62.554 E48.38682
G1 X150.386 Y64.204 E48.48853
G1 X152.341 Y66.452 E48.59025
G1 X153.630 Y69.137 E48.69196
G1 X154.172 Y72.516 E48.80880
G1 X154.550 Y146.673 E51.34092
G1 X154.167 Y149.627 E51.44263
G1 X153.369 Y151.722 E51.51919
G1 X153.053 Y152.352 E51.54326
G1 X151.374 Y154.813 E51.64497
G1 X147.886 Y157.418 E51.79361
G1 X106.952 Y176.930 E53.34200
G1 X103.125 Y177.973 E53.47743
G1 X102.289 Y178.045 E53.50606
G1 X100.463 Y178.054 E53.56842
G1 X99.694 Y177.995 E53.59476
G1 X97.455 Y177.589 E53.67248
G1 X51.412 Y164.259 E55.30916
G1 X47.852 Y162.490 E55.44490
G1 X47.270 Y162.057 E55.46967
G1 X44.419 Y158.930 E55.61414
G1 X43.981 Y158.212 E55.64289
G1 X42.782 Y155.485 E55.74460
G1 X42.347 Y152.405 E55.85082
G1 X42.347 Y67.931 E58.73517
G1 X42.746 Y64.979 E58.83689
G1 X43.529 Y62.938 E58.91151
G1 X44.038 Y61.923 E58.95030
G1 X45.716 Y59.462 E59.05202
G1 X47.045 Y58.403 E59.11002
G1 X47.308 Y58.638 F7800.000
G1 X48.754 Y57.491 E59.17305 F1800.000
G1 X49.862 Y56.874 E59.21634
G1 X52.108 Y55.939 E59.29941
G1 X97.904 Y42.683 E60.92731
G1 X101.071 Y42.262 E61.03641
G1 X101.864 Y42.275 E61.06346
G1 X103.775 Y42.479 E61.12909 F1800.000
G1 X104.502 Y42.622 E61.15439
G1 X107.052 Y43.467 E61.24614
G1 X147.750 Y62.875 E62.78566
G1 X150.186 Y64.503 E62.88572
G1 X152.094 Y66.727 E62.98579
G1 X153.333 Y69.383 E63.08585
G1 X153.815 Y72.518 E63.19414
G1 X154.193 Y146.674 E65.72625
G1 X153.810 Y149.580 E65.82631
G1 X153.050 Y151.562 E65.89880
G1 X152.734 Y152.192 E65.92287
G1 X151.077 Y154.609 E66.02293
G1 X147.733 Y157.095 E66.16522
G1 X106.798 Y176.608 E67.71360
G1 X103.094 Y177.617 E67.84470
G1 X102.258 Y177.690 E67.87333
G1 X100.491 Y177.698 E67.93369
G1 X99.722 Y177.639 E67.96002
G1 X97.554 Y177.246 E68.03525
G1 X51.511 Y163.916 E69.67194
G1 X48.065 Y162.204 E69.80333
G1 X47.483 Y161.771 E69.82810
G1 X44.724 Y158.744 E69.96794
G1 X44.285 Y158.026 E69.99668
G1 X43.112 Y155.340 E70.09675
G1 X42.705 Y152.405 E70.19795
G1 X42.705 Y67.931 E73.08231
G1 X43.103 Y65.027 E73.18237
G1 X43.848 Y63.098 E73.25299
G1 X44.357 Y62.083 E73.29178
G1 X46.014 Y59.665 E73.39184
G1 X47.261 Y58.676 E73.44622
G1 X47.524 Y58.912 F7800.000
G1 X48.928 Y57.803 E73.50730 F1800.000
G1 X50.036 Y57.186 E73.55059
G1 X52.207 Y56.282 E73.63090
G1 X98.003 Y43.026 E75.25879
G1 X101.065 Y42.619 E75.36427
G1 X101.858 Y42.632 E75.39133
G1 X103.706 Y42.829 E75.45479 F1800.000
G1 X104.433 Y42.972 E75.48008
G1 X106.899 Y43.790 E75.56879
G1 X147.593 Y63.196 E77.10822
G1 X149.985 Y64.803 E77.20660
G1 X151.846 Y67.002 E77.30499
G1 X153.034 Y69.628 E77.40338
G1 X153.458 Y72.519 E77.50317
G1 X153.836 Y146.676 E80.03529
G1 X153.452 Y149.532 E80.13367
G1 X152.731 Y151.402 E80.20211
G1 X152.415 Y152.032 E80.22619
G1 X150.780 Y154.405 E80.32457
G1 X147.579 Y156.773 E80.46053
G1 X106.645 Y176.286 E82.00891
G1 X103.063 Y177.261 E82.13567
G1 X102.227 Y177.334 E82.16430
G1 X100.518 Y177.342 E82.22266
G1 X99.749 Y177.283 E82.24899
G1 X97.653 Y176.903 E82.32173
G1 X51.610 Y163.573 E83.95842
G1 X48.278 Y161.918 E84.08546
G1 X47.697 Y161.484 E84.11023
G1 X45.029 Y158.558 E84.24544
G1 X44.590 Y157.840 E84.27418
G1 X43.442 Y155.197 E84.37257
G1 X43.062 Y152.405 E84.46879
G1 X43.062 Y67.931 E87.35314
G1 X43.460 Y65.077 E87.45153
G1 X44.167 Y63.258 E87.51816
G1 X44.676 Y62.243 E87.55696
G1 X46.311 Y59.870 E87.65534
G1 X47.477 Y58.949 E87.70608
G1 X47.739 Y59.185 F7800.000
G1 X49.102 Y58.115 E87.76524 F1800.000
G1 X50.209 Y57.498 E87.80853
G1 X52.306 Y56.625 E87.88610
G1 X98.102 Y43.369 E89.51397
G1 X101.059 Y42.976 E89.61584
G1 X101.852 Y42.990 E89.64290
G1 X103.636 Y43.179 E89.70418 F1800.000
G1 X104.363 Y43.323 E89.72948
G1 X106.745 Y44.112 E89.81515
G1 X147.437 Y63.517 E91.35448
G1 X149.784 Y65.101 E91.45116
G1 X151.596 Y67.277 E91.54784
G1 X152.732 Y69.870 E91.64452
G1 X153.101 Y72.521 E91.73591
G1 X153.479 Y146.678 E94.26802
G1 X153.095 Y149.483 E94.36470
G1 X152.411 Y151.242 E94.42913
G1 X152.096 Y151.872 E94.45320
G1 X150.484 Y154.200 E94.54988
G1 X147.426 Y156.451 E94.67953
G1 X106.491 Y175.963 E96.22792
G1 X103.032 Y176.905 E96.35033
G1 X102.196 Y176.978 E96.37896
G1 X100.546 Y176.986 E96.43532
G1 X99.777 Y176.927 E96.46166
G1 X97.752 Y176.560 E96.53191
G1 X51.710 Y163.230 E98.16859
G1 X48.492 Y161.632 E98.29128
G1 X47.910 Y161.198 E98.31605
G1 X45.334 Y158.372 E98.44663
G1 X44.895 Y157.654 E98.47538
G1 X43.773 Y155.054 E98.57206
G1 X43.419 Y152.405 E98.66332
G1 X43.419 Y67.931 E101.54767
G1 X43.817 Y65.128 E101.64435
G1 X44.486 Y63.418 E101.70703
G1 X44.995 Y62.403 E101.74583
G1 X46.607 Y60.075 E101.84251
G1 X47.692 Y59.222 E101.88961
G1 X47.954 Y59.460 F7800.000
G1 X49.275 Y58.427 E101.94688 F1800.000
G1 X50.383 Y57.810 E101.99017
G1 X52.406 Y56.968 E102.06498
G1 X98.201 Y43.712 E103.69285
G1 X101.054 Y43.333 E103.79111
G1 X101.846 Y43.347 E103.81816
G1 X103.567 Y43.529 E103.87727 F1800.000
G1 X104.294 Y43.673 E103.90257
G1 X106.591 Y44.434 E103.98521
G1 X147.281 Y63.838 E105.52443
G1 X149.581 Y65.400 E105.61937
G1 X151.345 Y67.550 E105.71431
G1 X152.427 Y70.111 E105.80926
G1 X152.744 Y72.523 E105.89233
G1 X153.122 Y146.680 E108.42444
G1 X152.738 Y149.434 E108.51938
G1 X152.092 Y151.082 E108.57983
G1 X151.776 Y151.712 E108.60390
G1 X150.188 Y153.994 E108.69884
G1 X147.272 Y156.128 E108.82222
G1 X106.337 Y175.641 E110.37060
G1 X103.001 Y176.550 E110.48868
G1 X102.165 Y176.623 E110.51731
G1 X100.573 Y176.630 E110.57167
G1 X99.804 Y176.571 E110.59801
G1 X97.852 Y176.217 E110.66577
G1 X51.809 Y162.887 E112.30245
G1 X48.705 Y161.345 E112.42079
G1 X48.124 Y160.912 E112.44556
G1 X45.638 Y158.186 E112.57151
G1 X45.200 Y157.467 E112.60026
G1 X44.105 Y154.911 E112.69520
G1 X43.776 Y152.405 E112.78153
G1 X43.776 Y67.931 E115.66588
G1 X44.174 Y65.179 E115.76083
G1 X44.806 Y63.578 E115.81959
G1 X45.315 Y62.563 E115.85838
G1 X46.903 Y60.281 E115.95332
G1 X47.906 Y59.497 E115.99679
G1 X48.167 Y59.735 F7800.000
G1 X49.449 Y58.739 E116.05220 F1800.000
G1 X50.557 Y58.122 E116.09549
G1 X52.505 Y57.311 E116.16755
G1 X98.300 Y44.055 E117.79541
G1 X101.048 Y43.690 E117.89005
G1 X101.840 Y43.704 E117.91711
G1 X103.498 Y43.880 E117.97405 F1800.000
G1 X104.225 Y44.023 E117.99934
G1 X106.438 Y44.757 E118.07894
G1 X147.124 Y64.159 E119.61807
G1 X149.378 Y65.698 E119.71124
G1 X151.091 Y67.822 E119.80441
G1 X152.119 Y70.349 E119.89758
G1 X152.387 Y72.525 E119.97243
G1 X152.765 Y146.682 E122.50454
G1 X152.381 Y149.383 E122.59771
G1 X151.773 Y150.922 E122.65420
G1 X151.457 Y151.552 E122.67827
G1 X149.892 Y153.787 E122.77144
G1 X147.118 Y155.806 E122.88858
G1 X106.184 Y175.319 E124.43696
G1 X102.970 Y176.194 E124.55070
G1 X102.134 Y176.267 E124.57933
G1 X100.601 Y176.274 E124.63169
G1 X99.832 Y176.215 E124.65803
G1 X97.951 Y175.874 E124.72330
G1 X51.908 Y162.544 E126.35998
G1 X48.919 Y161.059 E126.47397
G1 X48.337 Y160.625 E126.49874
G1 X45.943 Y158.000 E126.62006
G1 X45.504 Y157.281 E126.64881
G1 X44.437 Y154.770 E126.74198
G1 X44.133 Y152.405 E126.82342
G1 X44.133 Y67.931 E129.70777
G1 X44.531 Y65.231 E129.80094
G1 X45.125 Y63.738 E129.85581
G1 X45.634 Y62.723 E129.89460
G1 X47.199 Y60.487 E129.98777
G1 X48.120 Y59.772 E130.02760
G1 E129.02760 F1800.00000
G92 E0
G1 X59.966 Y97.591 F7800.000
G1 E1.00000 F1800.00000
G1 X60.929 Y95.902 E1.06638 F1800.000
G1 X60.771 Y95.567 E1.07904
G1 X59.746 Y95.387 E1.11457
G1 X58.711 Y95.225 E1.15036
G1 X58.678 Y95.236 E1.15152
G1 X58.309 Y95.051 E1.16564
G1 X58.200 Y95.033 E1.16939
G1 X57.944 Y95.071 E1.17823
G1 X57.301 Y94.958 E1.20052
G1 X57.090 Y95.064 E1.20860
G1 X57.051 Y95.141 E1.21151
G1 X55.227 Y95.747 E1.27717
G1 X54.857 Y95.562 E1.29128
G1 X54.749 Y95.544 E1.29504
G1 X54.493 Y95.582 E1.30387
G1 X52.683 Y95.264 E1.36659
G1 X51.800 Y94.608 E1.40416
G1 X51.216 Y93.446 E1.44858
G1 X51.215 Y93.179 E1.45770
G1 X51.176 Y93.065 E1.46181
G1 X50.969 Y92.804 E1.47319
G1 X50.969 Y90.086 E1.56598
G1 X51.000 Y89.818 E1.57519
G1 X51.079 Y89.487 E1.58682
G1 X51.072 Y89.381 E1.59043
G1 X50.928 Y88.993 E1.60457
G1 X50.977 Y88.107 E1.63487
G1 X50.969 Y85.305 E1.73055
G1 X51.008 Y84.971 E1.74201
G1 X50.969 Y84.834 E1.74687
G1 X50.969 Y82.117 E1.83966
G1 X51.000 Y81.849 E1.84887
G1 X51.108 Y81.446 E1.86310
G1 X51.109 Y81.326 E1.86722
G1 X50.805 Y80.411 E1.90012
G1 X51.080 Y79.864 E1.92102
G1 X51.072 Y79.679 E1.92736
G1 X51.050 Y79.643 E1.92879
G1 X51.001 Y78.556 E1.96594
G1 X50.969 Y78.469 E1.96912
G1 X50.969 Y75.742 E2.06223
G1 X51.008 Y75.408 E2.07370
G1 X50.969 Y75.271 E2.07856
G1 X50.969 Y72.554 E2.17134
G1 X51.000 Y72.286 E2.18056
G1 X51.108 Y71.883 E2.19479
G1 X51.109 Y71.763 E2.19891
G1 X50.805 Y70.848 E2.23180
G1 X51.199 Y70.064 E2.26176
G1 X51.190 Y69.879 E2.26810
G1 X51.168 Y69.843 E2.26952
G1 X51.114 Y68.610 E2.31165
G1 X50.805 Y67.661 E2.34575
G1 X51.837 Y65.603 E2.42433
G1 X52.037 Y65.319 E2.43621
G1 X52.319 Y65.024 E2.45015
G1 X52.595 Y64.812 E2.46202
G1 X54.677 Y63.653 E2.54340
G1 X55.062 Y63.687 E2.55659
G1 X58.934 Y62.566 E2.69421
G1 X59.043 Y62.600 E2.69814
G1 X59.155 Y62.599 E2.70193
G1 X60.504 Y62.150 E2.75048
G1 X60.676 Y62.062 E2.75709
G1 X67.924 Y59.964 E3.01473
G1 X68.654 Y59.600 E3.04258
G1 X69.166 Y59.689 E3.06033
G1 X69.254 Y59.683 E3.06335
G1 X70.783 Y59.175 E3.11834
G1 X70.955 Y59.086 E3.12495
G1 X78.556 Y56.886 E3.39517
G1 X78.655 Y56.916 E3.39871
G1 X78.788 Y56.907 E3.40324
G1 X78.911 Y56.849 E3.40789
G1 X79.343 Y56.951 E3.42305
G1 X79.507 Y56.912 E3.42879
G1 X79.875 Y56.606 E3.44513
G1 X80.299 Y56.381 E3.46152
G1 X87.813 Y54.206 E3.72862
G1 X88.025 Y54.104 E3.73666
G1 X88.887 Y53.998 E3.76632
G1 X90.405 Y53.494 E3.82094
G1 X90.577 Y53.406 E3.82755
G1 X97.845 Y51.302 E4.08587
G1 X98.456 Y50.978 E4.10949
G1 X99.216 Y51.069 E4.13564
G1 X99.333 Y51.043 E4.13972
G1 X99.915 Y50.690 E4.16298
G1 X100.548 Y50.519 E4.18537
G1 X102.435 Y50.550 E4.24980
G1 X102.616 Y50.654 E4.25692
G1 X102.696 Y50.678 E4.25976
G1 X103.011 Y50.696 E4.27054
G1 X109.382 Y53.733 E4.51153
G1 X109.559 Y53.749 E4.51760
G1 X110.678 Y54.386 E4.56158
G1 X110.781 Y54.569 E4.56875
G1 X110.936 Y54.666 E4.57499
G1 X111.393 Y54.692 E4.59063
G1 X114.003 Y55.926 E4.68921
G1 X115.624 Y56.735 E4.75106
G1 X115.777 Y56.910 E4.75900
G1 X115.949 Y56.975 E4.76529
G1 X116.197 Y57.113 E4.77499
G1 X116.275 Y57.136 E4.77776
G1 X116.551 Y57.152 E4.78719
G1 X119.158 Y58.387 E4.88569
G1 X120.784 Y59.202 E4.94778
G1 X121.023 Y59.478 E4.96028
G1 X121.165 Y59.565 E4.96594
G1 X121.235 Y59.584 E4.96843
G1 X121.709 Y59.611 E4.98465
G1 X129.351 Y63.254 E5.27372
G1 X129.503 Y63.269 E5.27894
G1 X130.620 Y63.877 E5.32236
G1 X130.755 Y64.102 E5.33133
G1 X130.907 Y64.195 E5.33740
G1 X131.381 Y64.222 E5.35361
G1 X135.274 Y66.072 E5.50078
G1 X136.921 Y66.910 E5.56390
G1 X137.063 Y66.975 E5.56921
G1 X137.299 Y66.975 E5.57727
G1 X138.150 Y67.449 E5.61053
G1 X139.146 Y67.916 E5.64812
G1 X140.771 Y68.731 E5.71018
G1 X141.011 Y69.008 E5.72270
G1 X141.152 Y69.094 E5.72833
G1 X141.223 Y69.113 E5.73083
G1 X141.695 Y69.139 E5.74697
G1 X144.627 Y70.546 E5.85800
G1 X145.242 Y71.244 E5.88977
G1 X145.594 Y72.283 E5.92724
G1 X145.530 Y73.212 E5.95901
G1 X143.604 Y77.053 E6.10572
G1 X142.719 Y77.347 E6.13758
G1 X142.611 Y77.440 E6.14244
G1 X138.724 Y85.196 E6.43865
G1 X137.839 Y85.490 E6.47051
G1 X137.731 Y85.583 E6.47536
G1 X133.844 Y93.339 E6.77158
G1 X132.959 Y93.633 E6.80344
G1 X132.851 Y93.726 E6.80829
G1 X129.247 Y100.916 E7.08292
G1 X128.362 Y101.211 E7.11478
G1 X128.255 Y101.303 E7.11963
