; generated by Slic3r 1.2.9 on 2020-04-24 at 17:53:53

; external perimeters extrusion width = 0.40mm
; perimeters extrusion width = 0.67mm
; infill extrusion width = 0.67mm
; solid infill extrusion width = 0.67mm
; top infill extrusion width = 0.67mm
; support material extrusion width = 0.40mm

M190 S45 ; set bed temperature
M104 S255 ; set temperature
G28 ; home all axes
G1 Z5 F5000 ; lift nozzle

M109 S255 ; wait for temperature to be reached
G21 ; set units to millimeters
G90 ; use absolute coordinates
M82 ; use absolute distances for extrusion
G92 E0
G1 E-1.00000 F1800.00000
G92 E0
G1 Z0.200 F7800.000
G1 X64.697 Y63.813 F7800.000
G1 E1.00000 F1800.00000
G1 X66.027 Y62.764 E1.05785 F1800.000
G1 X71.462 Y59.060 E1.28243
G1 X74.727 Y57.485 E1.40620
G1 X83.964 Y54.624 E1.73640
G1 X114.184 Y45.332 E2.81593
G1 X121.855 Y43.112 E3.08859
G1 X125.044 Y42.312 E3.20085
G1 X129.145 Y42.008 E3.34126
G1 X129.907 Y42.081 E3.36741
G1 X131.428 Y42.323 E3.41998 F1800.000
G1 X132.146 Y42.485 E3.44511
G1 X133.622 Y42.917 E3.49764
G1 X145.874 Y47.352 E3.94254
G1 X161.061 Y52.978 E4.49555
G1 X163.052 Y53.788 E4.56893
G1 X165.768 Y55.322 E4.67544
G1 X168.006 Y57.495 E4.78195
G1 X169.622 Y60.163 E4.88847
G1 X170.223 Y61.846 E4.94949
G1 X170.507 Y62.873 E4.98588
G1 X170.868 Y64.726 E5.05032
G1 X171.018 Y66.021 E5.09484
G1 X171.099 Y67.414 E5.14248
G1 X171.169 Y151.747 E8.02203
G1 X171.091 Y153.139 E8.06964
G1 X170.856 Y155.201 E8.14052
G1 X169.640 Y159.292 E8.28624
G1 X169.054 Y160.460 E8.33085
G1 X167.312 Y163.048 E8.43736
G1 X164.971 Y165.109 E8.54388
G1 X162.736 Y166.302 E8.63037
G1 X160.364 Y167.259 E8.71771
G1 X145.656 Y172.697 E9.25314
G1 X133.341 Y177.121 E9.69993
G1 X132.395 Y177.414 E9.73375
G1 X129.937 Y177.907 E9.81936
G1 X129.098 Y177.987 E9.84814
G1 X125.123 Y177.714 E9.98420
G1 X122.266 Y177.037 E10.08443
G1 X118.804 Y176.054 E10.20733
G1 X111.743 Y173.951 E10.45890
G1 X74.628 Y162.516 E11.78496
G1 X71.256 Y160.873 E11.91302
G1 X65.933 Y157.171 E12.13443
G1 X62.711 Y153.869 E12.29196
G1 X60.160 Y150.002 E12.45012
G1 X58.448 Y145.995 E12.59891
G1 X54.756 Y129.822 E13.16534
G1 X54.598 Y128.999 E13.19398
G1 X54.407 Y127.785 E13.23593
G1 X54.292 Y126.786 E13.27026
G1 X54.190 Y125.396 E13.31785
G1 X54.157 Y124.501 E13.34845
G1 X54.157 Y95.812 E14.32804
G1 X54.246 Y94.343 E14.37826
G1 X54.500 Y92.242 E14.45054
G1 X54.696 Y91.091 E14.49041
G1 X57.760 Y77.135 E14.97827
G1 X58.454 Y74.100 E15.08460
G1 X59.441 Y71.352 E15.18430
G1 X59.575 Y71.085 E15.19449
G1 X60.262 Y69.889 E15.24158
G1 X62.674 Y66.188 E15.39242
G1 X64.658 Y63.859 E15.49689
G1 X64.970 Y64.047 F7800.000
G1 X66.228 Y63.059 E15.55150 F1800.000
G1 X71.663 Y59.355 E15.77607
G1 X74.833 Y57.826 E15.89623
G1 X84.069 Y54.965 E16.22640
G1 X114.289 Y45.674 E17.30593
G1 X121.954 Y43.455 E17.57839
G1 X125.130 Y42.659 E17.69018
G1 X129.111 Y42.364 E17.82648
G1 X129.873 Y42.436 E17.85263
G1 X131.349 Y42.672 E17.90367 F1800.000
G1 X132.067 Y42.833 E17.92880
G1 X133.501 Y43.252 E17.97979
G1 X145.750 Y47.687 E18.42461
G1 X160.926 Y53.309 E18.97722
G1 X162.917 Y54.119 E19.05060
G1 X165.590 Y55.635 E19.15554
G1 X167.783 Y57.788 E19.26048
G1 X169.350 Y60.433 E19.36542
G1 X169.879 Y61.941 E19.42002
G1 X170.163 Y62.968 E19.45640
G1 X170.513 Y64.767 E19.51897
G1 X170.663 Y66.062 E19.56348
G1 X170.742 Y67.414 E19.60973
G1 X170.812 Y151.747 E22.48928
G1 X170.736 Y153.099 E22.53550
G1 X170.501 Y155.161 E22.60638
G1 X169.321 Y159.132 E22.74783
G1 X168.735 Y160.300 E22.79244
G1 X167.014 Y162.846 E22.89738
G1 X164.696 Y164.864 E23.00232
G1 X162.601 Y165.971 E23.08320
G1 X160.240 Y166.924 E23.17014
G1 X145.532 Y172.362 E23.70557
G1 X133.235 Y176.780 E24.15172
G1 X132.290 Y177.073 E24.18554
G1 X129.903 Y177.552 E24.26865
G1 X129.064 Y177.632 E24.29742
G1 X125.205 Y177.366 E24.42951
G1 X122.349 Y176.690 E24.52973
G1 X118.906 Y175.711 E24.65194
G1 X111.848 Y173.609 E24.90340
G1 X74.733 Y162.175 E26.22945
G1 X71.460 Y160.580 E26.35377
G1 X66.137 Y156.878 E26.57518
G1 X63.009 Y153.672 E26.72810
G1 X60.458 Y149.806 E26.88627
G1 X58.796 Y145.916 E27.03071
G1 X55.104 Y129.743 E27.59713
G1 X54.951 Y128.943 E27.62494
G1 X54.760 Y127.730 E27.66688
G1 X54.648 Y126.760 E27.70022
G1 X54.546 Y125.370 E27.74781
G1 X54.514 Y124.501 E27.77750
G1 X54.514 Y95.812 E28.75710
G1 X54.600 Y94.386 E28.80585
G1 X54.855 Y92.285 E28.87813
G1 X55.045 Y91.167 E28.91684
G1 X58.109 Y77.212 E29.40470
G1 X58.802 Y74.179 E29.51091
G1 X59.760 Y71.512 E29.60770
G1 X59.894 Y71.245 E29.61789
G1 X60.561 Y70.083 E29.66361
G1 X62.973 Y66.383 E29.81445
G1 X64.931 Y64.093 E29.91734
G1 X65.369 Y64.437 F7800.000
G1 X66.429 Y63.354 E29.96909 F1800.000
G1 X71.864 Y59.650 E30.19367
G1 X74.938 Y58.167 E30.31021
G1 X84.174 Y55.306 E30.64036
G1 X114.394 Y46.015 E31.71988
G1 X122.053 Y43.798 E31.99213
G1 X125.216 Y43.005 E32.10346
G1 X129.077 Y42.719 E32.23566
G1 X129.839 Y42.792 E32.26181
G1 X131.271 Y43.020 E32.31131 F1800.000
G1 X131.989 Y43.182 E32.33644
G1 X133.379 Y43.588 E32.38590
G1 X145.626 Y48.022 E32.83062
G1 X160.792 Y53.640 E33.38285
G1 X162.783 Y54.449 E33.45623
G1 X165.412 Y55.948 E33.55957
G1 X167.559 Y58.081 E33.66291
G1 X169.535 Y62.037 E33.81388
G1 X169.819 Y63.064 E33.85026
G1 X170.159 Y64.808 E33.91094
G1 X170.309 Y66.103 E33.95545
G1 X170.385 Y67.414 E34.00031
G1 X170.455 Y151.747 E36.87986
G1 X170.381 Y153.058 E36.92469
G1 X170.147 Y155.121 E36.99557
G1 X169.001 Y158.972 E37.13276
G1 X168.416 Y160.140 E37.17737
G1 X166.716 Y162.644 E37.28071
G1 X164.421 Y164.617 E37.38405
G1 X162.467 Y165.640 E37.45936
G1 X160.117 Y166.589 E37.54591
G1 X145.409 Y172.027 E38.08135
G1 X133.620 Y176.274 E38.50919
G1 X132.184 Y176.732 E38.56066
G1 X129.869 Y177.196 E38.64127
G1 X129.030 Y177.276 E38.67004
G1 X125.287 Y177.019 E38.79815
G1 X122.431 Y176.342 E38.89837
G1 X119.008 Y175.369 E39.01989
G1 X111.953 Y173.268 E39.27124
G1 X74.839 Y161.834 E40.59728
G1 X71.664 Y160.287 E40.71785
G1 X66.341 Y156.585 E40.93926
G1 X63.307 Y153.476 E41.08758
G1 X60.756 Y149.609 E41.24574
G1 X59.144 Y145.836 E41.38584
G1 X55.453 Y129.664 E41.95226
G1 X55.303 Y128.888 E41.97923
G1 X55.113 Y127.674 E42.02117
G1 X55.005 Y126.734 E42.05350
G1 X54.902 Y125.344 E42.10109
G1 X54.871 Y124.501 E42.12990
G1 X54.871 Y95.812 E43.10949
G1 X54.955 Y94.429 E43.15677
G1 X55.209 Y92.328 E43.22905
G1 X55.394 Y91.244 E43.26659
G1 X58.458 Y77.288 E43.75445
G1 X59.150 Y74.259 E43.86056
G1 X60.080 Y71.672 E43.95444
G1 X60.213 Y71.405 E43.96463
G1 X60.860 Y70.278 E44.00897
G1 X63.272 Y66.577 E44.15981
G1 X65.327 Y64.480 E44.26006
G1 X65.619 Y64.682 F7800.000
G1 X66.630 Y63.649 E44.30943 F1800.000
G1 X72.065 Y59.945 E44.53401
G1 X75.044 Y58.508 E44.64693
G1 X84.279 Y55.648 E44.97705
G1 X114.499 Y46.356 E46.05657
G1 X122.153 Y44.142 E46.32862
G1 X125.302 Y43.352 E46.43948
G1 X129.043 Y43.075 E46.56757
G1 X129.805 Y43.147 E46.59372
G1 X131.193 Y43.369 E46.64169 F1800.000
G1 X131.910 Y43.530 E46.66681
G1 X133.258 Y43.924 E46.71474
G1 X145.502 Y48.357 E47.15938
G1 X160.327 Y53.842 E47.69912
G1 X162.648 Y54.780 E47.78460
G1 X165.233 Y56.261 E47.88632
G1 X167.333 Y58.374 E47.98803
G1 X169.191 Y62.132 E48.13117
G1 X169.475 Y63.159 E48.16756
G1 X169.804 Y64.849 E48.22635
G1 X169.954 Y66.144 E48.27086
G1 X170.028 Y67.415 E48.31433
G1 X170.098 Y151.748 E51.19387
G1 X170.027 Y153.018 E51.23731
G1 X169.792 Y155.080 E51.30819
G1 X168.682 Y158.812 E51.44113
G1 X168.097 Y159.980 E51.48574
G1 X166.418 Y162.441 E51.58745
G1 X164.147 Y164.369 E51.68917
G1 X162.332 Y165.309 E51.75896
G1 X159.993 Y166.254 E51.84512
G1 X145.285 Y171.692 E52.38055
G1 X133.499 Y175.938 E52.80829
G1 X132.078 Y176.391 E52.85921
G1 X129.835 Y176.841 E52.93732
G1 X128.996 Y176.921 E52.96609
G1 X125.370 Y176.671 E53.09022
G1 X122.513 Y175.995 E53.19045
G1 X119.110 Y175.027 E53.31127
G1 X112.058 Y172.927 E53.56250
G1 X74.944 Y161.493 E54.88854
G1 X71.868 Y159.994 E55.00537
G1 X66.544 Y156.292 E55.22677
G1 X63.605 Y153.279 E55.37049
G1 X61.054 Y149.413 E55.52865
G1 X59.492 Y145.757 E55.66439
G1 X55.801 Y129.584 E56.23082
G1 X55.656 Y128.833 E56.25695
G1 X55.466 Y127.619 E56.29889
G1 X55.361 Y126.708 E56.33022
G1 X55.259 Y125.318 E56.37781
G1 X55.229 Y124.501 E56.40572
G1 X55.229 Y95.812 E57.38531
G1 X55.309 Y94.472 E57.43112
G1 X55.564 Y92.371 E57.50341
G1 X55.742 Y91.320 E57.53978
G1 X58.806 Y77.365 E58.02764
G1 X59.499 Y74.339 E58.13364
G1 X60.399 Y71.832 E58.22460
G1 X60.533 Y71.565 E58.23479
G1 X61.159 Y70.473 E58.27775
G1 X63.571 Y66.772 E58.42859
G1 X65.577 Y64.725 E58.52646
G1 X65.869 Y64.927 F7800.000
G1 X66.832 Y63.944 E58.57343 F1800.000
G1 X72.266 Y60.240 E58.79801
G1 X75.150 Y58.849 E58.90731
G1 X84.384 Y55.989 E59.23741
G1 X114.604 Y46.697 E60.31693
G1 X122.252 Y44.485 E60.58878
G1 X125.388 Y43.698 E60.69916
G1 X129.009 Y43.430 E60.82316
G1 X129.771 Y43.503 E60.84930
G1 X131.114 Y43.717 E60.89573 F1800.000
G1 X131.832 Y43.878 E60.92086
G1 X133.136 Y44.260 E60.96725
G1 X145.378 Y48.692 E61.41180
G1 X160.203 Y54.177 E61.95155
G1 X162.514 Y55.111 E62.03664
G1 X165.053 Y56.573 E62.13670
G1 X167.106 Y58.665 E62.23677
G1 X168.846 Y62.227 E62.37213
G1 X169.131 Y63.254 E62.40851
G1 X169.449 Y64.890 E62.46542
G1 X169.599 Y66.185 E62.50994
G1 X169.671 Y67.415 E62.55201
G1 X169.741 Y151.748 E65.43156
G1 X169.672 Y152.977 E65.47360
G1 X169.437 Y155.040 E65.54448
G1 X168.363 Y158.652 E65.67316
G1 X167.778 Y159.820 E65.71777
G1 X166.121 Y162.237 E65.81783
G1 X163.874 Y164.119 E65.91790
G1 X162.198 Y164.979 E65.98221
G1 X159.869 Y165.920 E66.06798
G1 X145.161 Y171.357 E66.60341
G1 X133.378 Y175.602 E67.03106
G1 X131.972 Y176.050 E67.08143
G1 X129.801 Y176.485 E67.15703
G1 X128.962 Y176.565 E67.18580
G1 X125.452 Y176.324 E67.30595
G1 X122.596 Y175.647 E67.40618
G1 X119.211 Y174.685 E67.52631
G1 X112.163 Y172.586 E67.77743
G1 X75.049 Y161.152 E69.10346
G1 X72.072 Y159.701 E69.21654
G1 X66.748 Y155.998 E69.43795
G1 X63.903 Y153.083 E69.57706
G1 X61.352 Y149.216 E69.73522
G1 X59.841 Y145.677 E69.86661
G1 X56.149 Y129.505 E70.43304
G1 X56.009 Y128.777 E70.45833
G1 X55.818 Y127.564 E70.50028
G1 X55.717 Y126.681 E70.53060
G1 X55.615 Y125.291 E70.57819
G1 X55.586 Y124.501 E70.60520
G1 X55.586 Y95.812 E71.58479
G1 X55.664 Y94.515 E71.62914
G1 X55.918 Y92.414 E71.70142
G1 X56.091 Y91.397 E71.73663
G1 X59.155 Y77.441 E72.22449
G1 X59.847 Y74.418 E72.33039
G1 X60.718 Y71.992 E72.41843
G1 X60.852 Y71.725 E72.42862
G1 X61.458 Y70.668 E72.47021
G1 X63.870 Y66.967 E72.62105
G1 X65.827 Y64.970 E72.71652
G1 X66.119 Y65.172 F7800.000
G1 X67.033 Y64.239 E72.76110 F1800.000
G1 X72.467 Y60.535 E72.98568
G1 X75.255 Y59.190 E73.09136
G1 X84.489 Y56.330 E73.42143
G1 X114.709 Y47.039 E74.50096
G1 X122.351 Y44.828 E74.77259
G1 X125.474 Y44.045 E74.88252
G1 X128.975 Y43.785 E75.00240
G1 X129.737 Y43.858 E75.02855
G1 X131.036 Y44.065 E75.07344 F1800.000
G1 X131.754 Y44.227 E75.09857
G1 X133.015 Y44.595 E75.14342
G1 X145.254 Y49.027 E75.58789
G1 X160.079 Y54.512 E76.12764
G1 X162.379 Y55.442 E76.21234
G1 X164.873 Y56.885 E76.31073
G1 X166.876 Y58.956 E76.40911
G1 X168.502 Y62.322 E76.53674
G1 X168.786 Y63.349 E76.57313
G1 X169.095 Y64.931 E76.62815
G1 X169.244 Y66.226 E76.67267
G1 X169.313 Y67.415 E76.71335
G1 X169.384 Y151.748 E79.59289
G1 X169.317 Y152.937 E79.63355
G1 X169.082 Y154.999 E79.70443
G1 X168.044 Y158.492 E79.82884
G1 X167.458 Y159.660 E79.87345
G1 X165.824 Y162.033 E79.97184
G1 X163.602 Y163.868 E80.07023
G1 X162.063 Y164.648 E80.12913
G1 X159.745 Y165.585 E80.21450
G1 X145.037 Y171.022 E80.74993
G1 X133.257 Y175.266 E81.17748
G1 X131.866 Y175.709 E81.22730
G1 X129.767 Y176.130 E81.30040
G1 X128.928 Y176.210 E81.32917
G1 X125.534 Y175.976 E81.44534
G1 X122.678 Y175.300 E81.54557
G1 X119.313 Y174.343 E81.66501
G1 X112.268 Y172.244 E81.91601
G1 X75.154 Y160.810 E83.24203
G1 X72.276 Y159.407 E83.35138
G1 X66.952 Y155.705 E83.57278
G1 X64.201 Y152.886 E83.70729
G1 X61.651 Y149.019 E83.86545
G1 X60.189 Y145.598 E83.99249
G1 X56.497 Y129.425 E84.55891
G1 X56.362 Y128.722 E84.58337
G1 X56.171 Y127.508 E84.62532
G1 X56.073 Y126.655 E84.65463
G1 X55.971 Y125.265 E84.70222
G1 X55.943 Y124.501 E84.72834
G1 X55.943 Y95.812 E85.70794
G1 X56.018 Y94.558 E85.75081
G1 X56.273 Y92.456 E85.82310
G1 X56.440 Y91.474 E85.85714
G1 X59.504 Y77.518 E86.34500
G1 X60.195 Y74.498 E86.45079
G1 X61.037 Y72.152 E86.53591
G1 X61.171 Y71.885 E86.54611
G1 X61.757 Y70.863 E86.58631
G1 X64.169 Y67.162 E86.73715
G1 X66.077 Y65.215 E86.83024
G1 X66.369 Y65.417 F7800.000
G1 X67.234 Y64.534 E86.87243 F1800.000
G1 X72.669 Y60.830 E87.09700
G1 X75.361 Y59.532 E87.19907
G1 X84.594 Y56.672 E87.52911
G1 X114.814 Y47.380 E88.60864
G1 X122.450 Y45.171 E88.88007
G1 X125.560 Y44.392 E88.98952
G1 X128.941 Y44.141 E89.10530
G1 X129.704 Y44.214 E89.13145
G1 X130.957 Y44.414 E89.17481 F1800.000
G1 X131.675 Y44.575 E89.19993
G1 X132.893 Y44.931 E89.24325
G1 X145.130 Y49.362 E89.68764
G1 X159.955 Y54.847 E90.22738
G1 X162.245 Y55.772 E90.31170
G1 X164.692 Y57.197 E90.40838
G1 X166.645 Y59.246 E90.50505
G1 X168.158 Y62.417 E90.62501
G1 X168.442 Y63.444 E90.66140
G1 X168.740 Y64.972 E90.71454
G1 X168.890 Y66.267 E90.75905
G1 X168.956 Y67.416 E90.79834
G1 X169.027 Y151.749 E93.67789
G1 X168.962 Y152.897 E93.71715
G1 X168.727 Y154.959 E93.78802
G1 X167.724 Y158.332 E93.90818
G1 X167.139 Y159.500 E93.95279
G1 X165.527 Y161.828 E94.04947
G1 X163.331 Y163.615 E94.14615
G1 X161.929 Y164.317 E94.19969
G1 X159.621 Y165.250 E94.28468
G1 X144.913 Y170.688 E94.82011
G1 X133.136 Y174.930 E95.24754
G1 X131.761 Y175.368 E95.29682
G1 X129.733 Y175.774 E95.36741
G1 X128.894 Y175.854 E95.39619
G1 X125.616 Y175.629 E95.50839
G1 X122.760 Y174.952 E95.60861
G1 X119.415 Y174.000 E95.72736
G1 X112.373 Y171.903 E95.97824
G1 X75.260 Y160.469 E97.30426
G1 X72.480 Y159.114 E97.40986
G1 X67.156 Y155.412 E97.63127
G1 X64.499 Y152.689 E97.76116
G1 X61.949 Y148.823 E97.91933
G1 X60.537 Y145.518 E98.04202
G1 X56.845 Y129.346 E98.60844
G1 X56.714 Y128.666 E98.63206
G1 X56.524 Y127.453 E98.67401
G1 X56.429 Y126.629 E98.70232
G1 X56.327 Y125.239 E98.74991
G1 X56.300 Y124.501 E98.77514
G1 X56.300 Y95.812 E99.75473
G1 X56.373 Y94.601 E99.79614
G1 X56.627 Y92.499 E99.86842
G1 X56.789 Y91.550 E99.90130
G1 X59.853 Y77.595 E100.38916
G1 X60.543 Y74.578 E100.49484
G1 X61.357 Y72.312 E100.57705
G1 X61.490 Y72.045 E100.58724
G1 X62.057 Y71.058 E100.62607
G1 X64.469 Y67.357 E100.77691
G1 X66.327 Y65.460 E100.86760
G1 X66.619 Y65.662 F7800.000
G1 X67.435 Y64.829 E100.90740 F1800.000
G1 X72.870 Y61.125 E101.13198
G1 X75.467 Y59.873 E101.23042
G1 X84.699 Y57.013 E101.56044
G1 X114.919 Y47.721 E102.63997
G1 X122.549 Y45.514 E102.91120
G1 X125.646 Y44.738 E103.02018
G1 X128.907 Y44.496 E103.13186
G1 X129.670 Y44.569 E103.15801
G1 X130.879 Y44.762 E103.19983 F1800.000
G1 X131.597 Y44.924 E103.22495
G1 X132.771 Y45.267 E103.26673
G1 X145.006 Y49.697 E103.71103
G1 X159.831 Y55.182 E104.25078
G1 X162.110 Y56.103 E104.33470
G1 X164.510 Y57.508 E104.42964
G1 X166.413 Y59.536 E104.52458
G1 X167.814 Y62.512 E104.63693
G1 X168.098 Y63.540 E104.67331
G1 X168.385 Y65.013 E104.72457
G1 X168.535 Y66.308 E104.76908
G1 X168.599 Y67.416 E104.80698
G1 X168.670 Y151.749 E107.68652
G1 X168.607 Y152.856 E107.72439
G1 X168.373 Y154.919 E107.79527
G1 X167.405 Y158.172 E107.91117
G1 X166.820 Y159.340 E107.95578
G1 X165.231 Y161.622 E108.05072
G1 X163.061 Y163.360 E108.14566
G1 X161.794 Y163.986 E108.19389
G1 X159.497 Y164.915 E108.27849
G1 X144.789 Y170.353 E108.81392
G1 X132.601 Y174.733 E109.25617
G1 X131.655 Y175.027 E109.28998
G1 X129.700 Y175.419 E109.35808
G1 X128.861 Y175.499 E109.38685
G1 X125.699 Y175.281 E109.49507
G1 X122.842 Y174.605 E109.59529
G1 X119.517 Y173.658 E109.71335
G1 X112.478 Y171.562 E109.96412
G1 X75.365 Y160.128 E111.29013
G1 X72.684 Y158.821 E111.39199
G1 X67.360 Y155.119 E111.61339
G1 X64.797 Y152.493 E111.73868
G1 X62.247 Y148.626 E111.89685
G1 X60.885 Y145.439 E112.01519
G1 X57.193 Y129.266 E112.58161
G1 X57.067 Y128.611 E112.60439
G1 X56.877 Y127.397 E112.64634
G1 X56.785 Y126.603 E112.67365
G1 X56.683 Y125.213 E112.72124
G1 X56.657 Y124.501 E112.74557
G1 X56.657 Y95.812 E113.72516
G1 X56.727 Y94.644 E113.76510
