; generated by Slic3r 1.2.9 on 2020-03-16 at 13:03:39

; external perimeters extrusion width = 0.40mm
; perimeters extrusion width = 0.68mm
; infill extrusion width = 1.28mm
; solid infill extrusion width = 0.68mm
; top infill extrusion width = 0.68mm
; support material extrusion width = 0.40mm

M190 S45 ; set bed temperature
M104 S255 ; set temperature
G28 ; home all axes
G1 Z5 F5000 ; lift nozzle

M109 S255 ; wait for temperature to be reached
G21 ; set units to millimeters
G90 ; use absolute coordinates
M82 ; use absolute distances for extrusion
G92 E0
G1 E-1.00000 F1800.00000
G92 E0
G1 Z0.200 F7800.000
G1 X55.062 Y55.062 F7800.000
G1 E1.00000 F1800.00000
G1 X57.489 Y52.636 E1.11717 F1800.000
G1 X58.439 Y51.780 E1.16083
G1 X63.773 Y47.461 E1.39518
G1 X64.807 Y46.710 E1.43883
G1 X70.563 Y42.972 E1.67317
G1 X71.670 Y42.332 E1.71683
G1 X77.785 Y39.217 E1.95117
G1 X78.953 Y38.697 E1.99483
G1 X85.361 Y36.237 E2.22917
G1 X86.577 Y35.842 E2.27283
G1 X93.206 Y34.066 E2.50717
G1 X94.457 Y33.800 E2.55083
G1 X101.236 Y32.726 E2.78518
G1 X102.507 Y32.592 E2.82882
G1 X109.361 Y32.233 E3.06318
G1 X110.639 Y32.233 E3.10683
G1 X117.493 Y32.592 E3.34118 F1800.000
G1 X118.765 Y32.726 E3.38482
G1 X125.543 Y33.800 E3.61918
G1 X126.794 Y34.066 E3.66282
G1 X133.423 Y35.842 E3.89718
G1 X134.639 Y36.237 E3.94082
G1 X140.988 Y38.674 E4.17304
G1 X142.215 Y39.217 E4.21882
G1 X148.330 Y42.332 E4.45317
G1 X149.437 Y42.972 E4.49682
G1 X155.193 Y46.710 E4.73117
G1 X156.227 Y47.461 E4.77482
G1 X161.561 Y51.780 E5.00918
G1 X162.511 Y52.636 E5.05282
G1 X167.364 Y57.489 E5.28717
G1 X168.220 Y58.439 E5.33082
G1 X172.500 Y63.724 E5.56304
G1 X173.290 Y64.807 E5.60882
G1 X177.028 Y70.563 E5.84317
G1 X177.668 Y71.670 E5.88682
G1 X180.783 Y77.785 E6.12117
G1 X181.303 Y78.953 E6.16482
G1 X183.763 Y85.361 E6.39917
G1 X184.158 Y86.577 E6.44282
G1 X185.934 Y93.206 E6.67717
G1 X186.200 Y94.457 E6.72082
G1 X187.274 Y101.235 E6.95517
G1 X187.408 Y102.507 E6.99882
G1 X187.767 Y109.361 E7.23316
G1 X187.767 Y110.639 E7.27681
G1 X187.408 Y117.493 E7.51117
G1 X187.274 Y118.765 E7.55482
G1 X186.201 Y125.539 E7.78903
G1 X185.934 Y126.794 E7.83282
G1 X184.158 Y133.424 E8.06719
G1 X183.763 Y134.639 E8.11082
G1 X181.303 Y141.047 E8.34517
G1 X180.783 Y142.215 E8.38882
G1 X177.667 Y148.330 E8.62318
G1 X177.028 Y149.437 E8.66682
G1 X173.290 Y155.193 E8.90117
G1 X172.539 Y156.227 E8.94482
G1 X168.220 Y161.561 E9.17916
G1 X167.364 Y162.511 E9.22282
G1 X162.511 Y167.364 E9.45716
G1 X161.561 Y168.220 E9.50082
G1 X156.227 Y172.539 E9.73517
G1 X155.193 Y173.290 E9.77882
G1 X149.437 Y177.028 E10.01316
G1 X148.330 Y177.668 E10.05682
G1 X142.215 Y180.783 E10.29116
G1 X141.047 Y181.303 E10.33482
G1 X134.639 Y183.763 E10.56916
G1 X133.423 Y184.158 E10.61282
G1 X126.794 Y185.934 E10.84716
G1 X125.543 Y186.200 E10.89082
G1 X118.765 Y187.274 E11.12516
G1 X117.493 Y187.408 E11.16881
G1 X110.702 Y187.763 E11.40103
G1 X109.361 Y187.767 E11.44681
G1 X102.507 Y187.408 E11.68116
G1 X101.235 Y187.274 E11.72481
G1 X94.457 Y186.200 E11.95916
G1 X93.206 Y185.934 E12.00281
G1 X86.576 Y184.158 E12.23718
G1 X85.361 Y183.763 E12.28081
G1 X79.012 Y181.326 E12.51303
G1 X77.785 Y180.783 E12.55881
G1 X71.670 Y177.668 E12.79316
G1 X70.563 Y177.028 E12.83681
G1 X64.807 Y173.290 E13.07117
G1 X63.773 Y172.539 E13.11481
G1 X58.439 Y168.220 E13.34916
G1 X57.489 Y167.364 E13.39281
G1 X52.636 Y162.511 E13.62716
G1 X51.780 Y161.561 E13.67081
G1 X47.461 Y156.227 E13.90516
G1 X46.710 Y155.193 E13.94881
G1 X42.972 Y149.437 E14.18316
G1 X42.332 Y148.330 E14.22681
G1 X39.217 Y142.215 E14.46116
G1 X38.697 Y141.047 E14.50481
G1 X36.237 Y134.639 E14.73916
G1 X35.842 Y133.423 E14.78281
G1 X34.066 Y126.794 E15.01716
G1 X33.800 Y125.543 E15.06081
G1 X32.726 Y118.764 E15.29516
G1 X32.592 Y117.493 E15.33881
G1 X32.233 Y110.639 E15.57316
G1 X32.233 Y109.361 E15.61681
G1 X32.592 Y102.507 E15.85116
G1 X32.726 Y101.235 E15.89481
G1 X33.800 Y94.457 E16.12915
G1 X34.066 Y93.206 E16.17281
G1 X35.842 Y86.577 E16.40716
G1 X36.237 Y85.361 E16.45081
G1 X38.697 Y78.953 E16.68516
G1 X39.217 Y77.785 E16.72881
G1 X42.332 Y71.670 E16.96315
G1 X42.972 Y70.563 E17.00681
G1 X46.710 Y64.807 E17.24115
G1 X47.461 Y63.773 E17.28481
G1 X51.780 Y58.439 E17.51915
G1 X52.636 Y57.489 E17.56281
G1 X55.020 Y55.105 E17.67793
G1 X55.315 Y55.315 F7800.000
G1 X57.741 Y52.888 E17.79511 F1800.000
G1 X58.664 Y52.058 E17.83748
G1 X63.997 Y47.739 E18.07183
G1 X65.001 Y47.009 E18.11420
G1 X70.758 Y43.271 E18.34855
G1 X71.832 Y42.651 E18.39093
G1 X77.948 Y39.535 E18.62528
G1 X79.081 Y39.030 E18.66765
G1 X85.489 Y36.570 E18.90200
G1 X86.669 Y36.187 E18.94438
G1 X93.299 Y34.410 E19.17872
G1 X94.512 Y34.152 E19.22110
G1 X101.291 Y33.079 E19.45545
G1 X102.526 Y32.949 E19.49782
G1 X109.380 Y32.590 E19.73218
G1 X110.621 Y32.590 E19.77455
G1 X117.475 Y32.949 E20.00890 F1800.000
G1 X118.709 Y33.079 E20.05127
G1 X125.488 Y34.152 E20.28562
G1 X126.701 Y34.410 E20.32799
G1 X133.331 Y36.187 E20.56235
G1 X134.511 Y36.570 E20.60472
G1 X140.860 Y39.008 E20.83694
G1 X142.052 Y39.535 E20.88144
G1 X148.168 Y42.651 E21.11579
G1 X149.242 Y43.271 E21.15816
G1 X154.999 Y47.009 E21.39251
G1 X156.003 Y47.739 E21.43489
G1 X161.337 Y52.058 E21.66924
G1 X162.259 Y52.888 E21.71161
G1 X167.112 Y57.741 E21.94596
G1 X167.942 Y58.664 E21.98833
G1 X172.222 Y63.949 E22.22055
G1 X172.991 Y65.001 E22.26505
G1 X176.729 Y70.758 E22.49940
G1 X177.349 Y71.832 E22.54178
G1 X180.465 Y77.948 E22.77613
G1 X180.970 Y79.081 E22.81850
G1 X183.430 Y85.489 E23.05285
G1 X183.813 Y86.669 E23.09523
G1 X185.590 Y93.299 E23.32957
G1 X185.848 Y94.512 E23.37195
G1 X186.921 Y101.291 E23.60630
G1 X187.051 Y102.526 E23.64867
G1 X187.410 Y109.379 E23.88302
G1 X187.410 Y110.620 E23.92539
G1 X187.051 Y117.474 E24.15974
G1 X186.921 Y118.709 E24.20212
G1 X185.848 Y125.484 E24.43633
G1 X185.590 Y126.701 E24.47884
G1 X183.813 Y133.331 E24.71321
G1 X183.430 Y134.511 E24.75557
G1 X180.970 Y140.919 E24.98992
G1 X180.465 Y142.052 E25.03229
G1 X177.349 Y148.168 E25.26665
G1 X176.729 Y149.242 E25.30901
G1 X172.991 Y154.999 E25.54337
G1 X172.261 Y156.003 E25.58574
G1 X167.942 Y161.336 E25.82009
G1 X167.112 Y162.259 E25.86246
G1 X162.259 Y167.112 E26.09681
G1 X161.336 Y167.942 E26.13919
G1 X156.002 Y172.261 E26.37354
G1 X154.999 Y172.991 E26.41591
G1 X149.242 Y176.729 E26.65026
G1 X148.168 Y177.349 E26.69263
G1 X142.052 Y180.465 E26.92698
G1 X140.919 Y180.970 E26.96936
G1 X134.511 Y183.430 E27.20370
G1 X133.331 Y183.813 E27.24608
G1 X126.701 Y185.590 E27.48043
G1 X125.487 Y185.848 E27.52280
G1 X118.709 Y186.921 E27.75715
G1 X117.474 Y187.051 E27.79953
G1 X110.683 Y187.407 E28.03174
G1 X109.379 Y187.410 E28.07625
G1 X102.526 Y187.051 E28.31060
G1 X101.291 Y186.921 E28.35297
G1 X94.512 Y185.848 E28.58732
G1 X93.299 Y185.590 E28.62969
G1 X86.669 Y183.813 E28.86406
G1 X85.489 Y183.430 E28.90642
G1 X79.140 Y180.992 E29.13864
G1 X77.948 Y180.465 E29.18314
G1 X71.832 Y177.349 E29.41749
G1 X70.758 Y176.729 E29.45986
G1 X65.001 Y172.991 E29.69422
G1 X63.997 Y172.261 E29.73659
G1 X58.664 Y167.942 E29.97093
G1 X57.741 Y167.112 E30.01331
G1 X52.888 Y162.259 E30.24766
G1 X52.058 Y161.336 E30.29003
G1 X47.739 Y156.003 E30.52438
G1 X47.009 Y154.999 E30.56676
G1 X43.271 Y149.242 E30.80111
G1 X42.651 Y148.168 E30.84348
G1 X39.535 Y142.052 E31.07783
G1 X39.030 Y140.919 E31.12021
G1 X36.570 Y134.511 E31.35455
G1 X36.187 Y133.331 E31.39693
G1 X34.410 Y126.701 E31.63128
G1 X34.152 Y125.487 E31.67365
G1 X33.079 Y118.708 E31.90801
G1 X32.949 Y117.474 E31.95038
G1 X32.590 Y110.620 E32.18473
G1 X32.590 Y109.379 E32.22710
G1 X32.949 Y102.526 E32.46145
G1 X33.079 Y101.291 E32.50382
G1 X34.152 Y94.512 E32.73817
G1 X34.410 Y93.299 E32.78055
G1 X36.187 Y86.669 E33.01490
G1 X36.570 Y85.489 E33.05727
G1 X39.030 Y79.081 E33.29163
G1 X39.535 Y77.948 E33.33399
G1 X42.651 Y71.832 E33.56834
G1 X43.271 Y70.758 E33.61072
G1 X47.009 Y65.001 E33.84507
G1 X47.739 Y63.997 E33.88744
G1 X52.058 Y58.664 E34.12179
G1 X52.888 Y57.741 E34.16417
G1 X55.272 Y55.357 E34.27929
G1 X55.567 Y55.567 F7800.000
G1 X57.994 Y53.141 E34.39646 F1800.000
G1 X58.888 Y52.335 E34.43756
G1 X64.222 Y48.016 E34.67191
G1 X65.196 Y47.309 E34.71301
G1 X70.952 Y43.571 E34.94736
G1 X71.994 Y42.969 E34.98846
G1 X78.110 Y39.853 E35.22281
G1 X79.209 Y39.363 E35.26391
G1 X85.617 Y36.904 E35.49825
G1 X86.762 Y36.532 E35.53935
G1 X93.391 Y34.755 E35.77370
G1 X94.568 Y34.505 E35.81480
G1 X101.347 Y33.431 E36.04915
G1 X102.544 Y33.306 E36.09025
G1 X109.398 Y32.946 E36.32461
G1 X110.602 Y32.946 E36.36570
G1 X117.456 Y33.306 E36.60005 F1800.000
G1 X118.653 Y33.431 E36.64114
G1 X125.432 Y34.505 E36.87550
G1 X126.609 Y34.755 E36.91659
G1 X133.239 Y36.532 E37.15094
G1 X134.383 Y36.904 E37.19204
G1 X140.732 Y39.341 E37.42426
G1 X141.890 Y39.853 E37.46748
G1 X148.006 Y42.969 E37.70183
G1 X149.048 Y43.571 E37.74293
G1 X154.804 Y47.309 E37.97728
G1 X155.778 Y48.016 E38.01838
G1 X161.112 Y52.335 E38.25273
G1 X162.006 Y53.141 E38.29382
G1 X166.859 Y57.994 E38.52817
G1 X167.665 Y58.888 E38.56927
G1 X171.945 Y64.174 E38.80149
G1 X172.691 Y65.196 E38.84472
G1 X176.429 Y70.952 E39.07907
G1 X177.031 Y71.994 E39.12016
G1 X180.147 Y78.110 E39.35451
G1 X180.637 Y79.209 E39.39561
G1 X183.096 Y85.617 E39.62996
G1 X183.468 Y86.762 E39.67106
G1 X185.245 Y93.391 E39.90541
G1 X185.495 Y94.568 E39.94651
G1 X186.569 Y101.347 E40.18086
G1 X186.694 Y102.544 E40.22195
G1 X187.054 Y109.398 E40.45630
G1 X187.054 Y110.602 E40.49740
G1 X186.694 Y117.456 E40.73175
G1 X186.569 Y118.653 E40.77285
G1 X185.496 Y125.428 E41.00706
G1 X185.245 Y126.609 E41.04830
G1 X183.468 Y133.239 E41.28266
G1 X183.096 Y134.383 E41.32374
G1 X180.637 Y140.791 E41.55809
G1 X180.147 Y141.890 E41.59919
G1 X177.031 Y148.006 E41.83355
G1 X176.429 Y149.048 E41.87464
G1 X172.691 Y154.804 E42.10899
G1 X171.984 Y155.778 E42.15009
G1 X167.665 Y161.112 E42.38443
G1 X166.859 Y162.006 E42.42553
G1 X162.006 Y166.859 E42.65988
G1 X161.112 Y167.665 E42.70098
G1 X155.778 Y171.984 E42.93533
G1 X154.804 Y172.691 E42.97643
G1 X149.048 Y176.429 E43.21078
G1 X148.006 Y177.031 E43.25188
G1 X141.890 Y180.147 E43.48622
G1 X140.791 Y180.637 E43.52732
G1 X134.383 Y183.096 E43.76167
G1 X133.238 Y183.468 E43.80277
G1 X126.609 Y185.245 E44.03712
G1 X125.432 Y185.495 E44.07822
G1 X118.653 Y186.569 E44.31257
G1 X117.456 Y186.694 E44.35367
G1 X110.664 Y187.050 E44.58588
G1 X109.398 Y187.054 E44.62911
G1 X102.544 Y186.694 E44.86346
G1 X101.347 Y186.569 E44.90456
G1 X94.568 Y185.495 E45.13891
G1 X93.391 Y185.245 E45.18001
G1 X86.761 Y183.468 E45.41437
G1 X85.617 Y183.096 E45.45545
G1 X79.268 Y180.659 E45.68767
G1 X78.110 Y180.147 E45.73090
G1 X71.994 Y177.031 E45.96525
G1 X70.952 Y176.429 E46.00635
G1 X65.196 Y172.691 E46.24070
G1 X64.222 Y171.984 E46.28179
G1 X58.888 Y167.665 E46.51614
G1 X57.994 Y166.859 E46.55724
G1 X53.141 Y162.006 E46.79159
G1 X52.335 Y161.112 E46.83269
G1 X48.016 Y155.778 E47.06703
G1 X47.309 Y154.804 E47.10813
G1 X43.571 Y149.048 E47.34249
G1 X42.969 Y148.006 E47.38358
G1 X39.853 Y141.890 E47.61793
G1 X39.363 Y140.791 E47.65903
G1 X36.904 Y134.383 E47.89338
G1 X36.532 Y133.238 E47.93448
G1 X34.755 Y126.609 E48.16883
G1 X34.505 Y125.432 E48.20993
G1 X33.431 Y118.653 E48.44428
G1 X33.306 Y117.456 E48.48537
G1 X32.946 Y110.602 E48.71973
G1 X32.946 Y109.398 E48.76082
G1 X33.306 Y102.544 E48.99517
G1 X33.431 Y101.347 E49.03627
G1 X34.505 Y94.568 E49.27061
G1 X34.755 Y93.391 E49.31171
G1 X36.532 Y86.762 E49.54606
G1 X36.904 Y85.617 E49.58716
G1 X39.363 Y79.209 E49.82152
G1 X39.853 Y78.110 E49.86261
G1 X42.969 Y71.994 E50.09696
G1 X43.571 Y70.952 E50.13806
G1 X47.309 Y65.196 E50.37240
G1 X48.016 Y64.222 E50.41350
G1 X52.335 Y58.888 E50.64785
G1 X53.141 Y57.994 E50.68895
G1 X55.525 Y55.610 E50.80408
G1 X55.820 Y55.820 F7800.000
G1 X58.246 Y53.393 E50.92125 F1800.000
G1 X59.113 Y52.613 E50.96107
G1 X64.447 Y48.294 E51.19542
G1 X65.390 Y47.608 E51.23525
G1 X71.146 Y43.870 E51.46959
G1 X72.157 Y43.287 E51.50942
G1 X78.272 Y40.171 E51.74376
G1 X79.337 Y39.697 E51.78359
G1 X85.745 Y37.237 E52.01794
G1 X86.854 Y36.877 E52.05776
G1 X93.483 Y35.100 E52.29211
G1 X94.624 Y34.858 E52.33193
G1 X101.403 Y33.784 E52.56628
G1 X102.563 Y33.662 E52.60610
G1 X109.417 Y33.303 E52.84046
G1 X110.583 Y33.303 E52.88027
G1 X117.437 Y33.662 E53.11463 F1800.000
G1 X118.597 Y33.784 E53.15444
G1 X125.376 Y34.858 E53.38880
G1 X126.517 Y35.100 E53.42861
G1 X133.146 Y36.877 E53.66297
G1 X134.255 Y37.237 E53.70279
G1 X140.604 Y39.674 E53.93500
G1 X141.728 Y40.171 E53.97695
G1 X147.843 Y43.287 E54.21130
G1 X148.854 Y43.870 E54.25113
G1 X154.610 Y47.608 E54.48548
G1 X155.553 Y48.294 E54.52530
G1 X160.887 Y52.613 E54.75965
G1 X161.754 Y53.393 E54.79947
G1 X166.607 Y58.246 E55.03382
G1 X167.387 Y59.113 E55.07364
G1 X171.667 Y64.398 E55.30586
G1 X172.392 Y65.390 E55.34781
G1 X176.130 Y71.146 E55.58216
G1 X176.713 Y72.157 E55.62198
G1 X179.829 Y78.272 E55.85633
G1 X180.303 Y79.337 E55.89615
G1 X182.763 Y85.745 E56.13050
G1 X183.123 Y86.854 E56.17032
G1 X184.900 Y93.483 E56.40467
G1 X185.142 Y94.624 E56.44449
G1 X186.216 Y101.403 E56.67884
G1 X186.338 Y102.563 E56.71866
G1 X186.697 Y109.417 E56.95301
G1 X186.697 Y110.583 E56.99283
G1 X186.338 Y117.437 E57.22718
G1 X186.216 Y118.597 E57.26701
G1 X185.143 Y125.372 E57.50122
G1 X184.900 Y126.517 E57.54118
G1 X183.123 Y133.147 E57.77555
G1 X182.763 Y134.255 E57.81535
G1 X180.303 Y140.663 E58.04970
G1 X179.829 Y141.728 E58.08952
G1 X176.713 Y147.844 E58.32388
G1 X176.130 Y148.854 E58.36369
G1 X172.392 Y154.610 E58.59805
G1 X171.706 Y155.553 E58.63786
G1 X167.387 Y160.887 E58.87221
G1 X166.607 Y161.754 E58.91203
G1 X161.754 Y166.607 E59.14638
G1 X160.887 Y167.387 E59.18621
G1 X155.553 Y171.706 E59.42056
G1 X154.610 Y172.392 E59.46038
G1 X148.854 Y176.130 E59.69472
G1 X147.843 Y176.713 E59.73455
G1 X141.728 Y179.829 E59.96890
G1 X140.663 Y180.303 E60.00872
G1 X134.255 Y182.763 E60.24307
G1 X133.146 Y183.123 E60.28289
G1 X126.517 Y184.900 E60.51724
G1 X125.376 Y185.142 E60.55706
G1 X118.597 Y186.216 E60.79141
G1 X117.437 Y186.338 E60.83123
G1 X110.645 Y186.694 E61.06345
G1 X109.417 Y186.697 E61.10540
G1 X102.563 Y186.338 E61.33975
G1 X101.403 Y186.216 E61.37957
G1 X94.624 Y185.142 E61.61392
G1 X93.483 Y184.900 E61.65374
G1 X86.854 Y183.123 E61.88811
G1 X85.745 Y182.763 E61.92791
G1 X79.396 Y180.326 E62.16013
G1 X78.272 Y179.829 E62.20208
G1 X72.156 Y176.713 E62.43644
G1 X71.146 Y176.130 E62.47625
G1 X65.390 Y172.392 E62.71061
G1 X64.447 Y171.706 E62.75043
G1 X59.113 Y167.387 E62.98477
G1 X58.246 Y166.607 E63.02460
G1 X53.393 Y161.754 E63.25895
G1 X52.613 Y160.887 E63.29877
G1 X48.294 Y155.553 E63.53312
G1 X47.608 Y154.610 E63.57294
G1 X43.870 Y148.853 E63.80729
G1 X43.287 Y147.843 E63.84711
G1 X40.171 Y141.728 E64.08146
G1 X39.697 Y140.663 E64.12128
G1 X37.237 Y134.255 E64.35563
G1 X36.877 Y133.146 E64.39545
G1 X35.100 Y126.517 E64.62980
G1 X34.858 Y125.376 E64.66962
G1 X33.784 Y118.597 E64.90398
G1 X33.662 Y117.437 E64.94380
G1 X33.303 Y110.583 E65.17815
G1 X33.303 Y109.417 E65.21797
G1 X33.662 Y102.563 E65.45231
G1 X33.784 Y101.403 E65.49214
G1 X34.858 Y94.624 E65.72649
G1 X35.100 Y93.483 E65.76631
G1 X36.877 Y86.854 E66.00066
G1 X37.237 Y85.745 E66.04048
G1 X39.697 Y79.337 E66.27483
G1 X40.171 Y78.272 E66.31465
G1 X43.287 Y72.157 E66.54900
G1 X43.870 Y71.146 E66.58882
G1 X47.608 Y65.390 E66.82317
G1 X48.294 Y64.447 E66.86299
G1 X52.613 Y59.113 E67.09734
G1 X53.393 Y58.246 E67.13717
G1 X55.777 Y55.862 E67.25229
G1 X56.072 Y56.072 F7800.000
G1 X58.499 Y53.646 E67.36946 F1800.000
G1 X59.338 Y52.890 E67.40801
G1 X64.672 Y48.571 E67.64236
G1 X65.585 Y47.908 E67.68091
G1 X71.341 Y44.170 E67.91525
G1 X72.319 Y43.605 E67.95380
G1 X78.434 Y40.489 E68.18815
G1 X79.465 Y40.030 E68.22670
G1 X85.873 Y37.570 E68.46104
G1 X86.946 Y37.222 E68.49959
G1 X93.576 Y35.445 E68.73394
G1 X94.680 Y35.210 E68.77249
G1 X101.459 Y34.137 E69.00684
G1 X102.582 Y34.019 E69.04538
G1 X109.436 Y33.660 E69.27974
G1 X110.564 Y33.660 E69.31828
G1 X117.419 Y34.019 E69.55263 F1800.000
G1 X118.541 Y34.137 E69.59117
G1 X125.320 Y35.210 E69.82552
G1 X126.424 Y35.445 E69.86407
