; generated by Slic3r 1.2.9 on 2020-03-16 at 13:01:28

; external perimeters extrusion width = 0.40mm
; perimeters extrusion width = 0.68mm
; infill extrusion width = 1.28mm
; solid infill extrusion width = 0.68mm
; top infill extrusion width = 0.68mm
; support material extrusion width = 0.40mm

M190 S45 ; set bed temperature
M104 S255 ; set temperature
G28 ; home all axes
G1 Z5 F5000 ; lift nozzle

M109 S255 ; wait for temperature to be reached
G21 ; set units to millimeters
G90 ; use absolute coordinates
M82 ; use absolute distances for extrusion
G92 E0
G1 E-1.00000 F1800.00000
G92 E0
G1 Z0.200 F7800.000
G1 X76.591 Y71.054 F7800.000
G1 E1.00000 F1800.00000
G1 X78.997 Y69.068 E1.10651 F1800.000
G1 X81.827 Y67.757 E1.21303
G1 X85.505 Y67.190 E1.34009
G1 X102.505 Y67.190 E1.92055
G1 X105.599 Y67.588 E2.02707
G1 X107.187 Y68.123 E2.08428 F1800.000
G1 X137.344 Y80.640 E3.19919
G1 X139.371 Y81.714 E3.27749
G1 X139.971 Y82.109 E3.30204
G1 X142.338 Y84.141 E3.40855
G1 X144.113 Y86.706 E3.51507
G1 X145.180 Y89.638 E3.62158
G1 X145.477 Y92.315 E3.71358
G1 X145.477 Y154.475 E5.83603
G1 X145.079 Y157.569 E5.94254
G1 X144.182 Y159.948 E6.02934
G1 X143.367 Y161.575 E6.09147
G1 X141.625 Y164.162 E6.19798
G1 X139.284 Y166.224 E6.30449
G1 X136.497 Y167.625 E6.41101
G1 X132.448 Y168.316 E6.55124
G1 X107.684 Y168.316 E7.39681
G1 X104.590 Y167.917 E7.50332
G1 X101.698 Y166.748 E7.60984
G1 X99.678 Y165.326 E7.69418
G1 X98.846 Y164.596 E7.73199
G1 X74.223 Y141.881 E8.87585
G1 X72.219 Y139.490 E8.98237
G1 X70.886 Y136.670 E9.08888
G1 X70.291 Y132.904 E9.21907
G1 X70.291 Y93.004 E10.58146
G1 X70.400 Y91.377 E10.63714
G1 X71.832 Y80.724 E11.00416
G1 X73.018 Y76.878 E11.14156
G1 X73.556 Y75.819 E11.18213
G1 X74.766 Y73.584 E11.26890
G1 X76.556 Y71.103 E11.37337
G1 X76.882 Y71.265 F7800.000
G1 X79.264 Y69.322 E11.47831 F1800.000
G1 X82.065 Y68.057 E11.58325
G1 X85.505 Y67.547 E11.70199
G1 X102.505 Y67.547 E12.28246
G1 X105.552 Y67.945 E12.38739
G1 X107.050 Y68.453 E12.44139 F1800.000
G1 X137.208 Y80.970 E13.55629
G1 X139.174 Y82.012 E13.63231
G1 X139.775 Y82.407 E13.65686
G1 X142.103 Y84.414 E13.76180
G1 X143.837 Y86.951 E13.86673
G1 X144.861 Y89.849 E13.97167
G1 X145.120 Y92.315 E14.05635
G1 X145.120 Y154.475 E16.17880
G1 X144.722 Y157.523 E16.28374
G1 X143.863 Y159.788 E16.36645
G1 X143.048 Y161.415 E16.42858
G1 X141.326 Y163.961 E16.53352
G1 X139.008 Y165.978 E16.63846
G1 X136.249 Y167.333 E16.74340
G1 X132.448 Y167.959 E16.87494
G1 X107.684 Y167.959 E17.72051
G1 X104.637 Y167.560 E17.82545
G1 X101.794 Y166.392 E17.93039
G1 X99.912 Y165.057 E18.00917
G1 X99.088 Y164.334 E18.04662
G1 X74.465 Y141.618 E19.19048
G1 X72.495 Y139.259 E19.29542
G1 X71.198 Y136.473 E19.40036
G1 X70.648 Y132.904 E19.52368
G1 X70.648 Y93.004 E20.88606
G1 X70.754 Y91.424 E20.94012
G1 X72.186 Y80.771 E21.30714
G1 X73.337 Y77.038 E21.44052
G1 X73.870 Y75.989 E21.48070
G1 X75.080 Y73.755 E21.56747
G1 X76.847 Y71.314 E21.67036
G1 X77.174 Y71.477 F7800.000
G1 X79.530 Y69.578 E21.77371 F1800.000
G1 X82.301 Y68.359 E21.87705
G1 X85.505 Y67.904 E21.98754
G1 X102.505 Y67.904 E22.56800
G1 X106.913 Y68.783 E22.72148
G1 X137.071 Y81.299 E23.83638 F1800.000
G1 X138.978 Y82.311 E23.91011
G1 X139.579 Y82.706 E23.93466
G1 X141.868 Y84.686 E24.03800
G1 X143.560 Y87.195 E24.14134
G1 X144.539 Y90.059 E24.24468
G1 X144.763 Y92.315 E24.32211
G1 X144.763 Y154.475 E26.44455
G1 X144.365 Y157.476 E26.54789
G1 X143.544 Y159.628 E26.62655
G1 X142.729 Y161.255 E26.68868
G1 X141.028 Y163.758 E26.79202
G1 X138.734 Y165.732 E26.89536
G1 X136.004 Y167.038 E26.99870
G1 X132.448 Y167.602 E27.12162
G1 X107.684 Y167.602 E27.96719
G1 X104.684 Y167.203 E28.07052
G1 X101.891 Y166.036 E28.17386
G1 X100.147 Y164.787 E28.24714
G1 X99.330 Y164.071 E28.28422
G1 X74.707 Y141.356 E29.42808
G1 X72.772 Y139.029 E29.53142
G1 X71.511 Y136.278 E29.63476
G1 X71.005 Y132.904 E29.75125
G1 X71.005 Y93.004 E31.11363
G1 X71.108 Y91.472 E31.16606
G1 X72.540 Y80.819 E31.53308
G1 X73.656 Y77.198 E31.66245
G1 X74.183 Y76.159 E31.70224
G1 X75.394 Y73.925 E31.78901
G1 X77.138 Y71.526 E31.89029
G1 X77.465 Y71.689 F7800.000
G1 X79.796 Y69.835 E31.99200 F1800.000
G1 X82.536 Y68.664 E32.09372
G1 X85.505 Y68.261 E32.19603
G1 X102.505 Y68.261 E32.77649
G1 X106.776 Y69.112 E32.92521
G1 X136.934 Y81.629 E34.04011 F1800.000
G1 X138.782 Y82.609 E34.11154
G1 X139.383 Y83.004 E34.13610
G1 X141.631 Y84.958 E34.23781
G1 X143.282 Y87.438 E34.33953
G1 X144.216 Y90.267 E34.44124
G1 X144.406 Y92.315 E34.51149
G1 X144.406 Y154.475 E36.63394
G1 X144.008 Y157.428 E36.73566
G1 X143.225 Y159.468 E36.81028
G1 X142.409 Y161.095 E36.87241
G1 X140.731 Y163.556 E36.97412
G1 X138.460 Y165.484 E37.07584
G1 X135.759 Y166.741 E37.17756
G1 X132.448 Y167.245 E37.29192
G1 X107.684 Y167.245 E38.13748
G1 X104.732 Y166.846 E38.23920
G1 X101.991 Y165.680 E38.34091
G1 X100.381 Y164.517 E38.40873
G1 X99.572 Y163.809 E38.44544
G1 X74.949 Y141.093 E39.58930
G1 X73.050 Y138.799 E39.69102
G1 X71.825 Y136.083 E39.79273
G1 X71.362 Y132.904 E39.90244
G1 X71.362 Y93.004 E41.26483
G1 X71.462 Y91.519 E41.31563
G1 X72.894 Y80.866 E41.68264
G1 X73.975 Y77.358 E41.80800
G1 X74.497 Y76.329 E41.84740
G1 X75.708 Y74.095 E41.93417
G1 X77.430 Y71.737 E42.03383
G1 X77.755 Y71.902 F7800.000
G1 X80.061 Y70.093 E42.13390 F1800.000
G1 X82.768 Y68.971 E42.23397
G1 X85.505 Y68.618 E42.32817
G1 X102.505 Y68.618 E42.90863
G1 X106.639 Y69.442 E43.05258
G1 X136.797 Y81.959 E44.16749 F1800.000
G1 X138.586 Y82.907 E44.23663
G1 X139.187 Y83.302 E44.26118
G1 X141.395 Y85.230 E44.36125
G1 X143.002 Y87.680 E44.46131
G1 X143.890 Y90.473 E44.56138
G1 X144.049 Y92.315 E44.62452
G1 X144.049 Y154.475 E46.74697
G1 X143.651 Y157.379 E46.84704
G1 X142.905 Y159.308 E46.91765
G1 X142.090 Y160.935 E46.97978
G1 X140.433 Y163.352 E47.07985
G1 X138.187 Y165.234 E47.17991
G1 X135.517 Y166.442 E47.27998
G1 X132.448 Y166.887 E47.38585
G1 X107.684 Y166.887 E48.23142
G1 X104.781 Y166.489 E48.33149
G1 X102.092 Y165.324 E48.43155
G1 X100.615 Y164.248 E48.49396
G1 X99.814 Y163.546 E48.53030
G1 X75.191 Y140.831 E49.67416
G1 X73.327 Y138.570 E49.77422
G1 X72.141 Y135.890 E49.87429
G1 X71.719 Y132.904 E49.97727
G1 X71.719 Y93.004 E51.33965
G1 X71.815 Y91.567 E51.38882
G1 X73.247 Y80.914 E51.75584
G1 X74.295 Y77.518 E51.87718
G1 X74.811 Y76.499 E51.91619
G1 X76.022 Y74.265 E52.00296
G1 X77.720 Y71.951 E52.10097
G1 X78.046 Y72.116 F7800.000
G1 X80.325 Y70.353 E52.19936 F1800.000
G1 X83.000 Y69.281 E52.29775
G1 X85.505 Y68.975 E52.38392
G1 X102.505 Y68.975 E52.96439
G1 X106.502 Y69.772 E53.10357
G1 X136.660 Y82.289 E54.21847 F1800.000
G1 X138.390 Y83.206 E54.28533
G1 X138.991 Y83.601 E54.30988
G1 X141.157 Y85.501 E54.40826
G1 X142.721 Y87.921 E54.50665
G1 X143.562 Y90.677 E54.60504
G1 X143.692 Y92.315 E54.66116
G1 X143.692 Y154.475 E56.78361
G1 X143.294 Y157.329 E56.88199
G1 X142.586 Y159.148 E56.94863
G1 X141.771 Y160.775 E57.01076
G1 X140.136 Y163.148 E57.10915
G1 X137.915 Y164.983 E57.20753
G1 X135.276 Y166.140 E57.30592
G1 X132.448 Y166.530 E57.40339
G1 X107.684 Y166.530 E58.24896
G1 X104.830 Y166.132 E58.34734
G1 X102.194 Y164.968 E58.44573
G1 X100.849 Y163.978 E58.50278
G1 X100.056 Y163.284 E58.53875
G1 X75.434 Y140.569 E59.68261
G1 X73.606 Y138.341 E59.78100
G1 X72.458 Y135.698 E59.87939
G1 X72.076 Y132.904 E59.97569
G1 X72.076 Y93.004 E61.33807
G1 X72.169 Y91.614 E61.38561
G1 X73.601 Y80.961 E61.75263
G1 X74.614 Y77.678 E61.86995
G1 X75.125 Y76.669 E61.90857
G1 X76.336 Y74.435 E61.99534
G1 X78.010 Y72.164 E62.09167
G1 X78.335 Y72.331 F7800.000
G1 X80.588 Y70.614 E62.18836 F1800.000
G1 X83.229 Y69.593 E62.28504
G1 X85.505 Y69.332 E62.36326
G1 X102.505 Y69.332 E62.94373
G1 X106.365 Y70.102 E63.07814
G1 X136.523 Y82.619 E64.19305 F1800.000
G1 X138.194 Y83.504 E64.25761
G1 X138.795 Y83.899 E64.28217
G1 X140.919 Y85.771 E64.37885
G1 X142.438 Y88.161 E64.47552
G1 X143.232 Y90.879 E64.57220
G1 X143.335 Y92.315 E64.62138
G1 X143.335 Y154.475 E66.74383
G1 X142.937 Y157.279 E66.84051
G1 X142.267 Y158.988 E66.90320
G1 X141.452 Y160.615 E66.96533
G1 X139.840 Y162.943 E67.06200
G1 X137.644 Y164.730 E67.15868
G1 X135.037 Y165.835 E67.25536
G1 X132.448 Y166.173 E67.34451
G1 X107.684 Y166.173 E68.19007
G1 X104.881 Y165.775 E68.28675
G1 X102.299 Y164.613 E68.38343
G1 X101.083 Y163.708 E68.43519
G1 X100.298 Y163.021 E68.47079
G1 X75.676 Y140.306 E69.61464
G1 X73.885 Y138.113 E69.71132
G1 X72.776 Y135.508 E69.80800
G1 X72.433 Y132.904 E69.89768
G1 X72.433 Y93.004 E71.26007
G1 X72.523 Y91.662 E71.30598
G1 X73.955 Y81.009 E71.67300
G1 X74.933 Y77.838 E71.78630
G1 X75.290 Y77.125 E71.81352
G1 X76.650 Y74.605 E71.91130
G1 X78.300 Y72.379 E72.00591
G1 X78.625 Y72.546 F7800.000
G1 X80.850 Y70.878 E72.10088 F1800.000
G1 X83.456 Y69.908 E72.19582
G1 X85.505 Y69.690 E72.26617
G1 X102.505 Y69.690 E72.84664
G1 X106.228 Y70.432 E72.97629
G1 X136.386 Y82.948 E74.09119 F1800.000
G1 X137.998 Y83.803 E74.15347
G1 X138.599 Y84.198 E74.17802
G1 X140.680 Y86.042 E74.27296
G1 X142.153 Y88.400 E74.36791
G1 X142.977 Y92.315 E74.50454
G1 X142.977 Y154.475 E76.62699
G1 X142.580 Y157.227 E76.72193
G1 X141.948 Y158.828 E76.78070
G1 X141.132 Y160.455 E76.84282
G1 X139.544 Y162.737 E76.93777
G1 X137.373 Y164.475 E77.03271
G1 X134.800 Y165.527 E77.12765
G1 X132.448 Y165.816 E77.20855
G1 X107.684 Y165.816 E78.05412
G1 X104.932 Y165.418 E78.14906
G1 X101.317 Y163.438 E78.28980
G1 X100.541 Y162.759 E78.32503
G1 X75.918 Y140.044 E79.46889
G1 X74.165 Y137.885 E79.56383
G1 X73.095 Y135.319 E79.65877
G1 X72.791 Y132.904 E79.74188
G1 X72.791 Y93.004 E81.10427
G1 X72.877 Y91.710 E81.14856
G1 X74.309 Y81.057 E81.51558
G1 X75.252 Y77.998 E81.62486
G1 X75.609 Y77.285 E81.65208
G1 X76.964 Y74.775 E81.74947
G1 X78.589 Y72.594 E81.84233
G1 X78.913 Y72.762 F7800.000
G1 X81.110 Y71.143 E81.93554 F1800.000
G1 X83.681 Y70.226 E82.02871
G1 X85.505 Y70.047 E82.09129
G1 X102.505 Y70.047 E82.67176
G1 X106.092 Y70.761 E82.79664
G1 X136.249 Y83.278 E83.91155 F1800.000
G1 X137.802 Y84.101 E83.97153
G1 X138.402 Y84.496 E83.99609
G1 X140.440 Y86.311 E84.08926
G1 X141.867 Y88.637 E84.18243
G1 X142.620 Y92.315 E84.31064
G1 X142.620 Y154.475 E86.43309
G1 X142.223 Y157.175 E86.52626
G1 X141.629 Y158.668 E86.58113
G1 X140.813 Y160.295 E86.64326
G1 X139.248 Y162.530 E86.73643
G1 X137.104 Y164.218 E86.82960
G1 X134.565 Y165.217 E86.92277
G1 X132.448 Y165.459 E86.99553
G1 X107.684 Y165.459 E87.84109
G1 X104.985 Y165.061 E87.93426
G1 X101.551 Y163.169 E88.06813
G1 X100.783 Y162.496 E88.10299
G1 X76.160 Y139.781 E89.24685
G1 X74.446 Y137.658 E89.34002
G1 X73.417 Y135.131 E89.43319
G1 X73.148 Y132.904 E89.50980
G1 X73.148 Y93.004 E90.87219
G1 X73.231 Y91.757 E90.91485
G1 X74.663 Y81.104 E91.28187
G1 X75.571 Y78.158 E91.38713
G1 X75.929 Y77.445 E91.41435
G1 X77.278 Y74.946 E91.51135
G1 X78.877 Y72.810 E91.60244
G1 E90.60244 F1800.00000
G92 E0
G1 X92.412 Y90.683 F7800.000
G1 E1.00000 F1800.00000
G1 X95.681 Y90.683 E1.11165 F1800.000
G1 X95.895 Y90.434 E1.12285
G1 X95.789 Y89.736 E1.14696
G1 X95.949 Y89.416 E1.15918
G1 X95.966 Y89.306 E1.16297
G1 X95.789 Y88.142 E1.20319
G1 X95.949 Y87.822 E1.21540
G1 X95.966 Y87.712 E1.21919
G1 X95.789 Y86.548 E1.25941
G1 X95.949 Y86.228 E1.27163
G1 X95.966 Y86.119 E1.27541
G1 X95.789 Y84.954 E1.31563
G1 X95.949 Y84.634 E1.32785
G1 X95.966 Y84.525 E1.33163
G1 X95.789 Y83.360 E1.37186
G1 X96.036 Y82.867 E1.39072
G1 X96.046 Y82.725 E1.39557
G1 X95.752 Y81.839 E1.42743
G1 X96.594 Y80.159 E1.49159
G1 X97.046 Y79.673 E1.51425
G1 X97.591 Y79.348 E1.53591
G1 X97.684 Y79.184 E1.54235
G1 X97.684 Y78.442 E1.56768
G1 X99.043 Y77.083 E1.63333
G1 X103.466 Y77.083 E1.78435
G1 X104.826 Y78.442 E1.85000
G1 X104.826 Y79.410 E1.88305
G1 X104.914 Y79.571 E1.88932
G1 X105.850 Y80.162 E1.92711
G1 X106.365 Y80.856 E1.95660
G1 X106.638 Y81.836 E1.99136
G1 X106.548 Y82.824 E2.02521
G1 X106.721 Y83.958 E2.06440
G1 X106.560 Y84.278 E2.07662
G1 X106.543 Y84.388 E2.08040
G1 X106.721 Y85.552 E2.12062
G1 X106.560 Y85.872 E2.13284
G1 X106.543 Y85.981 E2.13663
G1 X106.721 Y87.146 E2.17685
G1 X106.511 Y87.564 E2.19282
G1 X106.501 Y87.708 E2.19773
G1 X106.636 Y88.102 E2.21197
G1 X106.573 Y89.034 E2.24386
G1 X106.543 Y89.169 E2.24859
G1 X106.581 Y89.414 E2.25706
G1 X106.852 Y89.589 E2.26807
G1 X107.519 Y89.399 E2.29174
G1 X109.458 Y89.399 E2.35796
G1 X110.185 Y89.379 E2.38279
G1 X110.320 Y89.455 E2.38808
G1 X110.461 Y89.471 E2.39294
G1 X110.714 Y89.399 E2.40190
G1 X118.641 Y89.399 E2.67257
G1 X118.794 Y89.358 E2.67797
G1 X119.711 Y89.420 E2.70937
G1 X119.919 Y89.522 E2.71728
G1 X120.059 Y89.532 E2.72209
G1 X120.682 Y89.325 E2.74447
G1 X120.863 Y89.416 E2.75140
G1 X120.996 Y89.429 E2.75597
G1 X121.099 Y89.399 E2.75962
G1 X128.691 Y89.399 E3.01886
G1 X128.777 Y89.378 E3.02189
G1 X128.893 Y89.315 E3.02639
G1 X130.483 Y89.501 E3.08103
G1 X130.561 Y89.493 E3.08371
G1 X131.066 Y89.325 E3.10190
G1 X131.248 Y89.416 E3.10883
G1 X131.381 Y89.429 E3.11340
G1 X131.484 Y89.399 E3.11705
G1 X133.378 Y89.399 E3.18171
G1 X134.453 Y89.999 E3.22374
G1 X134.783 Y90.084 E3.23539
G1 X135.784 Y91.350 E3.29050
G1 X135.784 Y94.068 E3.38329
G1 X135.745 Y94.401 E3.39475
G1 X135.784 Y94.538 E3.39961
G1 X135.784 Y97.255 E3.49239
G1 X135.745 Y97.589 E3.50386
G1 X135.784 Y97.726 E3.50872
G1 X135.784 Y100.443 E3.60150
G1 X135.745 Y100.776 E3.61297
G1 X135.784 Y100.913 E3.61782
G1 X135.784 Y103.631 E3.71061
G1 X135.745 Y103.964 E3.72207
G1 X135.784 Y104.101 E3.72693
G1 X135.784 Y106.818 E3.81971
G1 X135.745 Y107.152 E3.83118
G1 X135.784 Y107.289 E3.83603
G1 X135.784 Y110.006 E3.92882
G1 X135.745 Y110.340 E3.94028
G1 X135.784 Y110.476 E3.94514
G1 X135.784 Y113.194 E4.03792
G1 X135.745 Y113.527 E4.04939
G1 X135.784 Y113.664 E4.05425
G1 X135.784 Y116.381 E4.14703
G1 X135.745 Y116.715 E4.15850
G1 X135.784 Y116.852 E4.16335
G1 X135.784 Y119.569 E4.25614
G1 X135.745 Y119.903 E4.26760
G1 X135.784 Y120.039 E4.27246
G1 X135.784 Y122.757 E4.36524
G1 X135.745 Y123.090 E4.37671
G1 X135.784 Y123.227 E4.38156
G1 X135.784 Y125.944 E4.47435
G1 X135.745 Y126.278 E4.48581
G1 X135.784 Y126.415 E4.49067
G1 X135.784 Y129.132 E4.58345
G1 X135.745 Y129.466 E4.59492
G1 X135.784 Y129.602 E4.59978
G1 X135.784 Y132.320 E4.69256
G1 X135.745 Y132.653 E4.70403
G1 X135.784 Y132.790 E4.70888
G1 X135.784 Y135.507 E4.80167
G1 X135.745 Y135.841 E4.81313
G1 X135.784 Y135.978 E4.81799
G1 X135.784 Y138.695 E4.91077
G1 X135.745 Y139.029 E4.92224
G1 X135.784 Y139.166 E4.92710
G1 X135.784 Y141.883 E5.01988
G1 X135.745 Y142.216 E5.03134
G1 X135.784 Y142.353 E5.03620
G1 X135.784 Y145.071 E5.12899
G1 X135.745 Y145.404 E5.14045
G1 X135.784 Y145.541 E5.14531
G1 X135.784 Y148.258 E5.23809
G1 X135.745 Y148.592 E5.24956
G1 X135.784 Y148.729 E5.25441
G1 X135.784 Y151.446 E5.34720
G1 X135.745 Y151.779 E5.35866
G1 X135.784 Y151.916 E5.36352
G1 X135.784 Y154.634 E5.45630
G1 X135.753 Y154.902 E5.46552
G1 X135.680 Y155.210 E5.47633
G1 X135.588 Y155.463 E5.48554
G1 X134.271 Y158.091 E5.58590
G1 X132.446 Y158.697 E5.65156
G1 X132.265 Y158.606 E5.65849
G1 X132.132 Y158.594 E5.66306
G1 X132.029 Y158.623 E5.66670
G1 X130.135 Y158.623 E5.73137
G1 X129.960 Y158.526 E5.73820
G1 X129.811 Y158.511 E5.74333
G1 X129.230 Y158.704 E5.76423
G1 X127.542 Y158.650 E5.82189
G1 X127.467 Y158.623 E5.82461
G1 X119.750 Y158.623 E6.08811
G1 X119.575 Y158.526 E6.09494
G1 X119.426 Y158.511 E6.10007
G1 X118.866 Y158.697 E6.12021
G1 X118.685 Y158.606 E6.12714
G1 X118.551 Y158.594 E6.13171
G1 X118.449 Y158.623 E6.13536
G1 X110.164 Y158.623 E6.41823
G1 X109.989 Y158.526 E6.42507
G1 X109.840 Y158.511 E6.43020
G1 X109.280 Y158.697 E6.45034
G1 X109.099 Y158.606 E6.45727
G1 X108.965 Y158.594 E6.46184
G1 X108.863 Y158.623 E6.46548
G1 X106.969 Y158.623 E6.53015
G1 X105.915 Y158.035 E6.57137
G1 X105.874 Y157.969 E6.57402
G1 X105.759 Y157.886 E6.57887
G1 X105.608 Y157.850 E6.58417
G1 X104.606 Y156.584 E6.63928
G1 X104.606 Y153.867 E6.73206
G1 X104.645 Y153.533 E6.74353
G1 X104.606 Y153.396 E6.74838
G1 X104.606 Y150.679 E6.84117
G1 X104.645 Y150.346 E6.85263
G1 X104.606 Y150.209 E6.85749
G1 X104.606 Y147.491 E6.95027
G1 X104.645 Y147.158 E6.96174
G1 X104.606 Y147.021 E6.96660
G1 X104.606 Y144.304 E7.05938
